;code generated for light painting
;by grass hopper
G28
G90
G21
M42 P11 S255
G1 X0.49 Y15.26 Z22.00 F3500 
M42 P4 S60 
M42 P5 S139 
M42 P6 S18 
G1 X0.40 Y14.27 Z22.00 F3500 
M42 P4 S59 
M42 P5 S134 
M42 P6 S17 
G1 X0.41 Y13.92 Z22.00 F3500 
M42 P4 S58 
M42 P5 S133 
M42 P6 S17 
G1 X0.49 Y13.65 Z22.00 F3500 
M42 P4 S58 
M42 P5 S133 
M42 P6 S17 
G1 X1.05 Y11.93 Z22.00 F3500 
M42 P4 S56 
M42 P5 S130 
M42 P6 S16 
G1 X2.28 Y9.20 Z22.00 F3500 
M42 P4 S58 
M42 P5 S133 
M42 P6 S17 
G1 X2.30 Y9.17 Z22.00 F3500 
M42 P4 S58 
M42 P5 S133 
M42 P6 S17 
G1 X2.34 Y9.11 Z22.00 F3500 
M42 P4 S58 
M42 P5 S133 
M42 P6 S17 
G1 X3.90 Y6.71 Z22.00 F3500 
M42 P4 S58 
M42 P5 S132 
M42 P6 S17 
G1 X6.22 Y3.56 Z22.00 F3500 
M42 P4 S58 
M42 P5 S137 
M42 P6 S17 
G1 X7.17 Y2.16 Z22.00 F3500 
M42 P4 S57 
M42 P5 S138 
M42 P6 S17 
G1 X8.32 Y0.56 Z22.00 F3500 
M42 P4 S56 
M42 P5 S131 
M42 P6 S16 
G1 X9.05 Y-0.41 Z22.00 F3500 
M42 P4 S55 
M42 P5 S128 
M42 P6 S16 
G1 X9.98 Y-1.62 Z22.00 F3500 
M42 P4 S54 
M42 P5 S128 
M42 P6 S16 
G1 X10.29 Y-2.02 Z22.00 F3500 
M42 P4 S54 
M42 P5 S124 
M42 P6 S16 
G1 X10.79 Y-2.61 Z22.00 F3500 
M42 P4 S54 
M42 P5 S123 
M42 P6 S16 
G1 X12.90 Y-4.79 Z22.00 F3500 
M42 P4 S43 
M42 P5 S99 
M42 P6 S12 
G1 X13.33 Y-5.12 Z22.00 F3500 
M42 P4 S41 
M42 P5 S93 
M42 P6 S12 
G1 X13.86 Y-5.41 Z22.00 F3500 
M42 P4 S54 
M42 P5 S119 
M42 P6 S15 
G1 X14.41 Y-5.90 Z22.00 F3500 
M42 P4 S52 
M42 P5 S118 
M42 P6 S15 
G1 X14.58 Y-5.97 Z22.00 F3500 
M42 P4 S52 
M42 P5 S119 
M42 P6 S15 
G1 X15.35 Y-6.22 Z22.00 F3500 
M42 P4 S54 
M42 P5 S124 
M42 P6 S15 
G1 X15.48 Y-6.23 Z22.00 F3500 
M42 P4 S55 
M42 P5 S126 
M42 P6 S15 
G1 X15.50 Y-6.22 Z22.00 F3500 
M42 P4 S55 
M42 P5 S126 
M42 P6 S15 
G1 X16.32 Y-5.47 Z22.00 F3500 
M42 P4 S55 
M42 P5 S126 
M42 P6 S16 
G1 X16.40 Y-5.37 Z22.00 F3500 
M42 P4 S55 
M42 P5 S126 
M42 P6 S16 
G1 X16.55 Y-5.07 Z22.00 F3500 
M42 P4 S56 
M42 P5 S127 
M42 P6 S16 
G1 X16.95 Y-4.68 Z22.00 F3500 
M42 P4 S56 
M42 P5 S127 
M42 P6 S16 
G1 X17.78 Y-3.91 Z22.00 F3500 
M42 P4 S57 
M42 P5 S128 
M42 P6 S16 
G1 X18.10 Y-3.44 Z22.00 F3500 
M42 P4 S56 
M42 P5 S126 
M42 P6 S15 
G1 X18.27 Y-3.34 Z22.00 F3500 
M42 P4 S55 
M42 P5 S122 
M42 P6 S16 
G1 X18.63 Y-2.90 Z22.00 F3500 
M42 P4 S54 
M42 P5 S122 
M42 P6 S16 
G1 X20.33 Y-0.64 Z22.00 F3500 
M42 P4 S54 
M42 P5 S119 
M42 P6 S15 
G1 X21.66 Y1.01 Z22.00 F3500 
M42 P4 S54 
M42 P5 S122 
M42 P6 S15 
G1 X22.99 Y2.81 Z22.00 F3500 
M42 P4 S55 
M42 P5 S123 
M42 P6 S15 
G1 X23.31 Y3.24 Z22.00 F3500 
M42 P4 S55 
M42 P5 S122 
M42 P6 S15 
G1 X23.99 Y4.09 Z22.00 F3500 
M42 P4 S54 
M42 P5 S121 
M42 P6 S15 
G1 X24.71 Y5.05 Z22.00 F3500 
M42 P4 S54 
M42 P5 S123 
M42 P6 S16 
G1 X25.12 Y5.72 Z22.00 F3500 
M42 P4 S55 
M42 P5 S126 
M42 P6 S16 
G1 X26.48 Y8.05 Z22.00 F3500 
M42 P4 S58 
M42 P5 S137 
M42 P6 S17 
G1 X26.65 Y8.30 Z22.00 F3500 
M42 P4 S59 
M42 P5 S139 
M42 P6 S18 
G1 X27.95 Y10.35 Z22.00 F3500 
M42 P4 S64 
M42 P5 S154 
M42 P6 S20 
G1 X28.05 Y10.51 Z22.00 F3500 
M42 P4 S64 
M42 P5 S156 
M42 P6 S20 
G1 X28.05 Y10.52 Z22.00 F3500 
M42 P4 S64 
M42 P5 S156 
M42 P6 S20 
G1 X29.32 Y12.31 Z22.00 F3500 
M42 P4 S67 
M42 P5 S161 
M42 P6 S20 
G1 X29.57 Y12.72 Z22.00 F3500 
M42 P4 S68 
M42 P5 S162 
M42 P6 S21 
G1 X29.74 Y13.02 Z22.00 F3500 
M42 P4 S68 
M42 P5 S163 
M42 P6 S21 
G1 X30.65 Y14.80 Z22.00 F3500 
M42 P4 S70 
M42 P5 S167 
M42 P6 S21 
G1 X31.00 Y15.57 Z22.00 F3500 
M42 P4 S72 
M42 P5 S169 
M42 P6 S22 
G1 X31.50 Y16.92 Z22.00 F3500 
M42 P4 S72 
M42 P5 S173 
M42 P6 S22 
G1 X31.59 Y17.21 Z22.00 F3500 
M42 P4 S73 
M42 P5 S173 
M42 P6 S22 
G1 X31.74 Y17.82 Z22.00 F3500 
M42 P4 S73 
M42 P5 S176 
M42 P6 S23 
G1 X31.78 Y18.01 Z22.00 F3500 
M42 P4 S73 
M42 P5 S176 
M42 P6 S23 
G1 X31.83 Y18.30 Z22.00 F3500 
M42 P4 S74 
M42 P5 S179 
M42 P6 S23 
G1 X31.89 Y18.82 Z22.00 F3500 
M42 P4 S74 
M42 P5 S179 
M42 P6 S24 
G1 X31.90 Y19.49 Z22.00 F3500 
M42 P4 S74 
M42 P5 S181 
M42 P6 S24 
G1 X31.91 Y21.04 Z22.00 F3500 
M42 P4 S76 
M42 P5 S181 
M42 P6 S24 
G1 X31.91 Y21.96 Z22.00 F3500 
M42 P4 S77 
M42 P5 S183 
M42 P6 S24 
G1 X31.89 Y22.12 Z22.00 F3500 
M42 P4 S77 
M42 P5 S181 
M42 P6 S24 
G1 X31.85 Y22.44 Z22.00 F3500 
M42 P4 S77 
M42 P5 S182 
M42 P6 S24 
G1 X31.68 Y23.54 Z22.00 F3500 
M42 P4 S76 
M42 P5 S183 
M42 P6 S24 
G1 X31.66 Y23.58 Z22.00 F3500 
M42 P4 S76 
M42 P5 S183 
M42 P6 S24 
G1 X31.45 Y24.30 Z22.00 F3500 
M42 P4 S75 
M42 P5 S181 
M42 P6 S24 
G1 X31.44 Y24.31 Z22.00 F3500 
M42 P4 S75 
M42 P5 S181 
M42 P6 S24 
G1 X30.79 Y25.42 Z22.00 F3500 
M42 P4 S76 
M42 P5 S181 
M42 P6 S23 
G1 X30.46 Y25.97 Z22.00 F3500 
M42 P4 S75 
M42 P5 S178 
M42 P6 S23 
G1 X30.28 Y26.22 Z22.00 F3500 
M42 P4 S75 
M42 P5 S174 
M42 P6 S23 
G1 X30.10 Y26.48 Z22.00 F3500 
M42 P4 S75 
M42 P5 S176 
M42 P6 S23 
G1 X29.49 Y27.32 Z22.00 F3500 
M42 P4 S72 
M42 P5 S172 
M42 P6 S22 
G1 X29.42 Y27.41 Z22.00 F3500 
M42 P4 S72 
M42 P5 S172 
M42 P6 S22 
G1 X29.35 Y27.47 Z22.00 F3500 
M42 P4 S72 
M42 P5 S172 
M42 P6 S22 
G1 X29.07 Y27.73 Z22.00 F3500 
M42 P4 S72 
M42 P5 S172 
M42 P6 S22 
G1 X28.44 Y28.27 Z22.00 F3500 
M42 P4 S73 
M42 P5 S174 
M42 P6 S22 
G1 X28.15 Y28.48 Z22.00 F3500 
M42 P4 S73 
M42 P5 S174 
M42 P6 S22 
G1 X27.53 Y28.91 Z22.00 F3500 
M42 P4 S73 
M42 P5 S178 
M42 P6 S23 
G1 X27.14 Y29.13 Z22.00 F3500 
M42 P4 S73 
M42 P5 S176 
M42 P6 S23 
G1 X27.04 Y29.21 Z22.00 F3500 
M42 P4 S72 
M42 P5 S177 
M42 P6 S23 
G1 X26.60 Y29.42 Z22.00 F3500 
M42 P4 S71 
M42 P5 S177 
M42 P6 S23 
G1 X26.42 Y29.48 Z22.00 F3500 
M42 P4 S71 
M42 P5 S176 
M42 P6 S23 
G1 X25.96 Y29.64 Z22.00 F3500 
M42 P4 S71 
M42 P5 S174 
M42 P6 S23 
G1 X25.14 Y29.91 Z22.00 F3500 
M42 P4 S70 
M42 P5 S172 
M42 P6 S22 
G1 X24.74 Y29.98 Z22.00 F3500 
M42 P4 S70 
M42 P5 S172 
M42 P6 S22 
G1 X22.73 Y30.34 Z22.00 F3500 
M42 P4 S71 
M42 P5 S168 
M42 P6 S21 
G1 X22.69 Y30.33 Z22.00 F3500 
M42 P4 S71 
M42 P5 S168 
M42 P6 S21 
G1 X22.54 Y30.32 Z22.00 F3500 
M42 P4 S71 
M42 P5 S168 
M42 P6 S21 
G1 X21.66 Y30.21 Z22.00 F3500 
M42 P4 S69 
M42 P5 S169 
M42 P6 S22 
G1 X21.46 Y30.16 Z22.00 F3500 
M42 P4 S69 
M42 P5 S169 
M42 P6 S22 
G1 X20.71 Y29.85 Z22.00 F3500 
M42 P4 S67 
M42 P5 S166 
M42 P6 S21 
G1 X19.89 Y29.41 Z22.00 F3500 
M42 P4 S66 
M42 P5 S163 
M42 P6 S21 
G1 X18.60 Y28.70 Z22.00 F3500 
M42 P4 S66 
M42 P5 S160 
M42 P6 S21 
G1 X16.60 Y27.56 Z22.00 F3500 
M42 P4 S65 
M42 P5 S157 
M42 P6 S21 
G1 X16.06 Y27.21 Z22.00 F3500 
M42 P4 S64 
M42 P5 S156 
M42 P6 S20 
G1 X15.04 Y26.46 Z22.00 F3500 
M42 P4 S63 
M42 P5 S157 
M42 P6 S20 
G1 X14.22 Y25.82 Z22.00 F3500 
M42 P4 S63 
M42 P5 S159 
M42 P6 S20 
G1 X13.36 Y25.07 Z22.00 F3500 
M42 P4 S62 
M42 P5 S144 
M42 P6 S19 
G1 X13.18 Y24.91 Z22.00 F3500 
M42 P4 S61 
M42 P5 S139 
M42 P6 S18 
G1 X13.03 Y24.84 Z22.00 F3500 
M42 P4 S61 
M42 P5 S138 
M42 P6 S18 
G1 X12.49 Y24.51 Z22.00 F3500 
M42 P4 S62 
M42 P5 S139 
M42 P6 S18 
G1 X11.96 Y24.10 Z22.00 F3500 
M42 P4 S61 
M42 P5 S140 
M42 P6 S18 
G1 X11.21 Y23.48 Z22.00 F3500 
M42 P4 S61 
M42 P5 S143 
M42 P6 S19 
G1 X10.50 Y22.79 Z22.00 F3500 
M42 P4 S59 
M42 P5 S141 
M42 P6 S18 
G1 X10.15 Y22.55 Z22.00 F3500 
M42 P4 S58 
M42 P5 S140 
M42 P6 S18 
G1 X9.69 Y22.19 Z22.00 F3500 
M42 P4 S59 
M42 P5 S139 
M42 P6 S18 
G1 X8.75 Y21.32 Z22.00 F3500 
M42 P4 S60 
M42 P5 S139 
M42 P6 S19 
G1 X8.53 Y21.13 Z22.00 F3500 
M42 P4 S61 
M42 P5 S140 
M42 P6 S18 
G1 X7.77 Y20.71 Z22.00 F3500 
M42 P4 S61 
M42 P5 S138 
M42 P6 S18 
G1 X7.14 Y20.38 Z22.00 F3500 
M42 P4 S61 
M42 P5 S137 
M42 P6 S18 
G1 X4.75 Y18.99 Z22.00 F3500 
M42 P4 S60 
M42 P5 S138 
M42 P6 S18 
G1 X3.66 Y18.47 Z22.00 F3500 
M42 P4 S60 
M42 P5 S136 
M42 P6 S17 
G1 X2.51 Y17.71 Z22.00 F3500 
M42 P4 S59 
M42 P5 S134 
M42 P6 S17 
G1 X2.05 Y17.34 Z22.00 F3500 
M42 P4 S59 
M42 P5 S134 
M42 P6 S18 
G1 X1.98 Y17.25 Z22.00 F3500 
M42 P4 S59 
M42 P5 S134 
M42 P6 S18 
G1 X1.12 Y16.35 Z22.00 F3500 
M42 P4 S60 
M42 P5 S138 
M42 P6 S18 
G1 X0.91 Y16.07 Z22.00 F3500 
M42 P4 S60 
M42 P5 S139 
M42 P6 S18 
G1 X0.51 Y15.34 Z22.00 F3500 
M42 P4 S60 
M42 P5 S139 
M42 P6 S18 
G1 X0.49 Y15.26 Z22.00 F3500 
M42 P4 S60 
M42 P5 S139 
M42 P6 S18 
M42 P4 S0 
M42 P5 S0 
M42 P6 S0 
G1 X18.35 Y-13.58 Z24.00 F3500 
M42 P4 S56 
M42 P5 S127 
M42 P6 S16 
G1 X18.35 Y-13.57 Z24.00 F3500 
M42 P4 S56 
M42 P5 S127 
M42 P6 S16 
G1 X18.66 Y-13.01 Z24.00 F3500 
M42 P4 S55 
M42 P5 S124 
M42 P6 S15 
G1 X18.67 Y-13.00 Z24.00 F3500 
M42 P4 S55 
M42 P5 S123 
M42 P6 S15 
G1 X18.70 Y-12.95 Z24.00 F3500 
M42 P4 S55 
M42 P5 S123 
M42 P6 S15 
G1 X18.72 Y-12.91 Z24.00 F3500 
M42 P4 S55 
M42 P5 S123 
M42 P6 S15 
G1 X18.87 Y-12.62 Z24.00 F3500 
M42 P4 S55 
M42 P5 S123 
M42 P6 S16 
G1 X19.19 Y-11.96 Z24.00 F3500 
M42 P4 S56 
M42 P5 S126 
M42 P6 S16 
G1 X19.28 Y-11.76 Z24.00 F3500 
M42 P4 S56 
M42 P5 S126 
M42 P6 S16 
G1 X19.36 Y-11.57 Z24.00 F3500 
M42 P4 S56 
M42 P5 S126 
M42 P6 S16 
G1 X19.84 Y-10.76 Z24.00 F3500 
M42 P4 S56 
M42 P5 S124 
M42 P6 S16 
G1 X20.67 Y-9.38 Z24.00 F3500 
M42 P4 S56 
M42 P5 S127 
M42 P6 S16 
G1 X21.47 Y-7.92 Z24.00 F3500 
M42 P4 S55 
M42 P5 S124 
M42 P6 S15 
G1 X22.18 Y-6.61 Z24.00 F3500 
M42 P4 S55 
M42 P5 S123 
M42 P6 S15 
G1 X22.34 Y-6.36 Z24.00 F3500 
M42 P4 S55 
M42 P5 S122 
M42 P6 S15 
G1 X24.54 Y-2.86 Z24.00 F3500 
M42 P4 S56 
M42 P5 S129 
M42 P6 S16 
G1 X25.00 Y-2.23 Z24.00 F3500 
M42 P4 S56 
M42 P5 S129 
M42 P6 S16 
G1 X26.97 Y0.62 Z24.00 F3500 
M42 P4 S59 
M42 P5 S132 
M42 P6 S17 
G1 X27.43 Y1.36 Z24.00 F3500 
M42 P4 S61 
M42 P5 S137 
M42 P6 S17 
G1 X28.30 Y2.89 Z24.00 F3500 
M42 P4 S62 
M42 P5 S139 
M42 P6 S17 
G1 X28.65 Y3.57 Z24.00 F3500 
M42 P4 S62 
M42 P5 S141 
M42 P6 S17 
G1 X29.22 Y4.80 Z24.00 F3500 
M42 P4 S62 
M42 P5 S139 
M42 P6 S17 
G1 X29.77 Y6.01 Z24.00 F3500 
M42 P4 S61 
M42 P5 S138 
M42 P6 S17 
G1 X29.79 Y6.07 Z24.00 F3500 
M42 P4 S62 
M42 P5 S139 
M42 P6 S17 
G1 X30.15 Y7.02 Z24.00 F3500 
M42 P4 S61 
M42 P5 S138 
M42 P6 S17 
G1 X30.41 Y7.61 Z24.00 F3500 
M42 P4 S62 
M42 P5 S142 
M42 P6 S18 
G1 X31.19 Y9.22 Z24.00 F3500 
M42 P4 S65 
M42 P5 S153 
M42 P6 S19 
G1 X31.59 Y10.09 Z24.00 F3500 
M42 P4 S66 
M42 P5 S154 
M42 P6 S19 
G1 X32.29 Y11.37 Z24.00 F3500 
M42 P4 S66 
M42 P5 S154 
M42 P6 S19 
G1 X32.58 Y12.05 Z24.00 F3500 
M42 P4 S65 
M42 P5 S151 
M42 P6 S19 
G1 X33.44 Y13.83 Z24.00 F3500 
M42 P4 S69 
M42 P5 S156 
M42 P6 S20 
G1 X33.63 Y14.30 Z24.00 F3500 
M42 P4 S70 
M42 P5 S164 
M42 P6 S21 
G1 X34.14 Y15.66 Z24.00 F3500 
M42 P4 S70 
M42 P5 S162 
M42 P6 S20 
G1 X34.24 Y15.93 Z24.00 F3500 
M42 P4 S70 
M42 P5 S164 
M42 P6 S21 
G1 X34.25 Y15.97 Z24.00 F3500 
M42 P4 S70 
M42 P5 S164 
M42 P6 S21 
G1 X34.34 Y16.30 Z24.00 F3500 
M42 P4 S71 
M42 P5 S168 
M42 P6 S21 
G1 X34.48 Y16.90 Z24.00 F3500 
M42 P4 S72 
M42 P5 S171 
M42 P6 S21 
G1 X34.66 Y17.69 Z24.00 F3500 
M42 P4 S73 
M42 P5 S177 
M42 P6 S22 
G1 X34.70 Y17.94 Z24.00 F3500 
M42 P4 S74 
M42 P5 S178 
M42 P6 S22 
G1 X34.72 Y18.12 Z24.00 F3500 
M42 P4 S74 
M42 P5 S179 
M42 P6 S22 
G1 X34.85 Y19.04 Z24.00 F3500 
M42 P4 S74 
M42 P5 S178 
M42 P6 S22 
G1 X34.89 Y19.40 Z24.00 F3500 
M42 P4 S74 
M42 P5 S178 
M42 P6 S22 
G1 X34.89 Y19.48 Z24.00 F3500 
M42 P4 S74 
M42 P5 S178 
M42 P6 S22 
G1 X34.89 Y19.60 Z24.00 F3500 
M42 P4 S74 
M42 P5 S178 
M42 P6 S22 
G1 X34.87 Y20.61 Z24.00 F3500 
M42 P4 S75 
M42 P5 S181 
M42 P6 S23 
G1 X34.66 Y22.27 Z24.00 F3500 
M42 P4 S76 
M42 P5 S186 
M42 P6 S24 
G1 X34.65 Y22.35 Z24.00 F3500 
M42 P4 S77 
M42 P5 S187 
M42 P6 S24 
G1 X34.44 Y23.33 Z24.00 F3500 
M42 P4 S77 
M42 P5 S189 
M42 P6 S24 
G1 X34.31 Y23.84 Z24.00 F3500 
M42 P4 S77 
M42 P5 S190 
M42 P6 S24 
G1 X34.13 Y24.31 Z24.00 F3500 
M42 P4 S77 
M42 P5 S191 
M42 P6 S24 
G1 X33.75 Y25.14 Z24.00 F3500 
M42 P4 S76 
M42 P5 S184 
M42 P6 S23 
G1 X33.72 Y25.19 Z24.00 F3500 
M42 P4 S76 
M42 P5 S184 
M42 P6 S23 
G1 X33.71 Y25.21 Z24.00 F3500 
M42 P4 S76 
M42 P5 S184 
M42 P6 S23 
G1 X33.41 Y25.71 Z24.00 F3500 
M42 P4 S77 
M42 P5 S187 
M42 P6 S24 
G1 X33.13 Y26.11 Z24.00 F3500 
M42 P4 S76 
M42 P5 S194 
M42 P6 S25 
G1 X32.95 Y26.32 Z24.00 F3500 
M42 P4 S76 
M42 P5 S194 
M42 P6 S25 
G1 X32.67 Y26.65 Z24.00 F3500 
M42 P4 S76 
M42 P5 S194 
M42 P6 S25 
G1 X30.69 Y28.97 Z24.00 F3500 
M42 P4 S77 
M42 P5 S187 
M42 P6 S24 
G1 X30.19 Y29.52 Z24.00 F3500 
M42 P4 S76 
M42 P5 S186 
M42 P6 S24 
G1 X29.59 Y30.13 Z24.00 F3500 
M42 P4 S76 
M42 P5 S184 
M42 P6 S23 
G1 X29.26 Y30.44 Z24.00 F3500 
M42 P4 S77 
M42 P5 S190 
M42 P6 S24 
G1 X28.53 Y31.10 Z24.00 F3500 
M42 P4 S77 
M42 P5 S191 
M42 P6 S24 
G1 X28.05 Y31.46 Z24.00 F3500 
M42 P4 S75 
M42 P5 S187 
M42 P6 S24 
G1 X27.36 Y31.99 Z24.00 F3500 
M42 P4 S75 
M42 P5 S187 
M42 P6 S23 
G1 X27.29 Y32.04 Z24.00 F3500 
M42 P4 S75 
M42 P5 S187 
M42 P6 S23 
G1 X27.20 Y32.10 Z24.00 F3500 
M42 P4 S75 
M42 P5 S184 
M42 P6 S23 
G1 X26.94 Y32.24 Z24.00 F3500 
M42 P4 S74 
M42 P5 S181 
M42 P6 S23 
G1 X26.60 Y32.42 Z24.00 F3500 
M42 P4 S74 
M42 P5 S180 
M42 P6 S23 
G1 X25.97 Y32.72 Z24.00 F3500 
M42 P4 S73 
M42 P5 S179 
M42 P6 S23 
G1 X25.68 Y32.85 Z24.00 F3500 
M42 P4 S74 
M42 P5 S179 
M42 P6 S23 
G1 X25.17 Y33.01 Z24.00 F3500 
M42 P4 S74 
M42 P5 S178 
M42 P6 S23 
G1 X24.67 Y33.16 Z24.00 F3500 
M42 P4 S72 
M42 P5 S181 
M42 P6 S22 
G1 X24.45 Y33.22 Z24.00 F3500 
M42 P4 S73 
M42 P5 S181 
M42 P6 S22 
G1 X24.11 Y33.27 Z24.00 F3500 
M42 P4 S73 
M42 P5 S180 
M42 P6 S22 
G1 X23.07 Y33.40 Z24.00 F3500 
M42 P4 S72 
M42 P5 S176 
M42 P6 S22 
G1 X22.85 Y33.43 Z24.00 F3500 
M42 P4 S72 
M42 P5 S176 
M42 P6 S22 
G1 X22.60 Y33.43 Z24.00 F3500 
M42 P4 S72 
M42 P5 S174 
M42 P6 S22 
G1 X21.49 Y33.43 Z24.00 F3500 
M42 P4 S70 
M42 P5 S170 
M42 P6 S21 
G1 X20.54 Y33.37 Z24.00 F3500 
M42 P4 S69 
M42 P5 S169 
M42 P6 S21 
G1 X18.82 Y33.11 Z24.00 F3500 
M42 P4 S67 
M42 P5 S163 
M42 P6 S20 
G1 X18.67 Y33.08 Z24.00 F3500 
M42 P4 S67 
M42 P5 S162 
M42 P6 S20 
G1 X18.42 Y33.02 Z24.00 F3500 
M42 P4 S67 
M42 P5 S162 
M42 P6 S20 
G1 X17.34 Y32.73 Z24.00 F3500 
M42 P4 S68 
M42 P5 S161 
M42 P6 S20 
G1 X15.85 Y32.18 Z24.00 F3500 
M42 P4 S68 
M42 P5 S160 
M42 P6 S20 
G1 X15.61 Y32.06 Z24.00 F3500 
M42 P4 S68 
M42 P5 S161 
M42 P6 S20 
G1 X15.45 Y31.98 Z24.00 F3500 
M42 P4 S68 
M42 P5 S160 
M42 P6 S20 
G1 X14.25 Y31.50 Z24.00 F3500 
M42 P4 S67 
M42 P5 S161 
M42 P6 S21 
G1 X12.87 Y30.76 Z24.00 F3500 
M42 P4 S67 
M42 P5 S160 
M42 P6 S21 
G1 X11.94 Y30.39 Z24.00 F3500 
M42 P4 S66 
M42 P5 S154 
M42 P6 S20 
G1 X10.81 Y29.77 Z24.00 F3500 
M42 P4 S65 
M42 P5 S154 
M42 P6 S20 
G1 X10.28 Y29.51 Z24.00 F3500 
M42 P4 S65 
M42 P5 S151 
M42 P6 S19 
G1 X9.34 Y29.17 Z24.00 F3500 
M42 P4 S65 
M42 P5 S152 
M42 P6 S19 
G1 X8.22 Y28.74 Z24.00 F3500 
M42 P4 S65 
M42 P5 S157 
M42 P6 S20 
G1 X6.68 Y28.50 Z24.00 F3500 
M42 P4 S65 
M42 P5 S153 
M42 P6 S20 
G1 X5.65 Y28.21 Z24.00 F3500 
M42 P4 S65 
M42 P5 S156 
M42 P6 S20 
G1 X4.41 Y27.83 Z24.00 F3500 
M42 P4 S65 
M42 P5 S160 
M42 P6 S20 
G1 X3.14 Y27.24 Z24.00 F3500 
M42 P4 S64 
M42 P5 S157 
M42 P6 S20 
G1 X2.52 Y26.91 Z24.00 F3500 
M42 P4 S64 
M42 P5 S158 
M42 P6 S21 
G1 X1.46 Y26.35 Z24.00 F3500 
M42 P4 S65 
M42 P5 S157 
M42 P6 S21 
G1 X0.38 Y25.74 Z24.00 F3500 
M42 P4 S65 
M42 P5 S154 
M42 P6 S20 
G1 X-2.02 Y24.16 Z24.00 F3500 
M42 P4 S67 
M42 P5 S159 
M42 P6 S20 
G1 X-2.45 Y23.85 Z24.00 F3500 
M42 P4 S66 
M42 P5 S158 
M42 P6 S20 
G1 X-3.28 Y23.13 Z24.00 F3500 
M42 P4 S62 
M42 P5 S151 
M42 P6 S19 
G1 X-4.77 Y21.91 Z24.00 F3500 
M42 P4 S61 
M42 P5 S137 
M42 P6 S17 
G1 X-5.96 Y20.92 Z24.00 F3500 
M42 P4 S62 
M42 P5 S144 
M42 P6 S18 
G1 X-6.12 Y20.81 Z24.00 F3500 
M42 P4 S62 
M42 P5 S144 
M42 P6 S18 
G1 X-6.57 Y20.30 Z24.00 F3500 
M42 P4 S62 
M42 P5 S146 
M42 P6 S18 
G1 X-6.79 Y20.03 Z24.00 F3500 
M42 P4 S62 
M42 P5 S146 
M42 P6 S18 
G1 X-8.38 Y18.03 Z24.00 F3500 
M42 P4 S62 
M42 P5 S141 
M42 P6 S18 
G1 X-8.58 Y17.77 Z24.00 F3500 
M42 P4 S61 
M42 P5 S140 
M42 P6 S18 
G1 X-8.85 Y17.33 Z24.00 F3500 
M42 P4 S61 
M42 P5 S139 
M42 P6 S18 
G1 X-8.91 Y16.95 Z24.00 F3500 
M42 P4 S62 
M42 P5 S141 
M42 P6 S18 
G1 X-8.93 Y15.96 Z24.00 F3500 
M42 P4 S61 
M42 P5 S142 
M42 P6 S19 
G1 X-8.88 Y15.37 Z24.00 F3500 
M42 P4 S61 
M42 P5 S141 
M42 P6 S18 
G1 X-8.87 Y15.22 Z24.00 F3500 
M42 P4 S61 
M42 P5 S140 
M42 P6 S18 
G1 X-8.75 Y14.77 Z24.00 F3500 
M42 P4 S61 
M42 P5 S143 
M42 P6 S18 
G1 X-8.73 Y14.73 Z24.00 F3500 
M42 P4 S61 
M42 P5 S143 
M42 P6 S18 
G1 X-8.71 Y14.69 Z24.00 F3500 
M42 P4 S61 
M42 P5 S143 
M42 P6 S18 
G1 X-8.47 Y14.27 Z24.00 F3500 
M42 P4 S60 
M42 P5 S140 
M42 P6 S18 
G1 X-7.76 Y13.07 Z24.00 F3500 
M42 P4 S57 
M42 P5 S132 
M42 P6 S16 
G1 X-7.56 Y12.73 Z24.00 F3500 
M42 P4 S57 
M42 P5 S131 
M42 P6 S16 
M42 P4 S0 
M42 P5 S0 
M42 P6 S0 
G1 X19.09 Y-16.80 Z26.00 F3500 
M42 P4 S54 
M42 P5 S121 
M42 P6 S15 
G1 X19.24 Y-16.81 Z26.00 F3500 
M42 P4 S55 
M42 P5 S124 
M42 P6 S15 
G1 X19.48 Y-16.78 Z26.00 F3500 
M42 P4 S54 
M42 P5 S126 
M42 P6 S16 
G1 X19.59 Y-16.76 Z26.00 F3500 
M42 P4 S55 
M42 P5 S126 
M42 P6 S16 
G1 X19.69 Y-16.69 Z26.00 F3500 
M42 P4 S56 
M42 P5 S127 
M42 P6 S16 
G1 X20.03 Y-16.43 Z26.00 F3500 
M42 P4 S55 
M42 P5 S123 
M42 P6 S16 
G1 X20.32 Y-16.13 Z26.00 F3500 
M42 P4 S55 
M42 P5 S121 
M42 P6 S16 
G1 X20.43 Y-16.01 Z26.00 F3500 
M42 P4 S55 
M42 P5 S121 
M42 P6 S16 
G1 X20.68 Y-15.66 Z26.00 F3500 
M42 P4 S55 
M42 P5 S121 
M42 P6 S16 
G1 X21.43 Y-14.78 Z26.00 F3500 
M42 P4 S55 
M42 P5 S127 
M42 P6 S16 
G1 X22.68 Y-13.04 Z26.00 F3500 
M42 P4 S60 
M42 P5 S133 
M42 P6 S16 
G1 X23.72 Y-11.40 Z26.00 F3500 
M42 P4 S54 
M42 P5 S122 
M42 P6 S16 
G1 X23.99 Y-10.96 Z26.00 F3500 
M42 P4 S54 
M42 P5 S121 
M42 P6 S15 
G1 X24.23 Y-10.56 Z26.00 F3500 
M42 P4 S56 
M42 P5 S126 
M42 P6 S16 
G1 X24.51 Y-10.00 Z26.00 F3500 
M42 P4 S59 
M42 P5 S132 
M42 P6 S17 
G1 X24.94 Y-9.29 Z26.00 F3500 
M42 P4 S60 
M42 P5 S133 
M42 P6 S17 
G1 X25.96 Y-7.62 Z26.00 F3500 
M42 P4 S60 
M42 P5 S134 
M42 P6 S17 
G1 X26.61 Y-6.51 Z26.00 F3500 
M42 P4 S59 
M42 P5 S132 
M42 P6 S16 
G1 X27.62 Y-4.77 Z26.00 F3500 
M42 P4 S59 
M42 P5 S131 
M42 P6 S17 
G1 X28.74 Y-3.04 Z26.00 F3500 
M42 P4 S60 
M42 P5 S131 
M42 P6 S16 
G1 X29.25 Y-2.24 Z26.00 F3500 
M42 P4 S60 
M42 P5 S130 
M42 P6 S17 
G1 X30.26 Y-0.55 Z26.00 F3500 
M42 P4 S60 
M42 P5 S134 
M42 P6 S18 
G1 X30.54 Y-0.05 Z26.00 F3500 
M42 P4 S60 
M42 P5 S133 
M42 P6 S18 
G1 X31.35 Y1.68 Z26.00 F3500 
M42 P4 S61 
M42 P5 S138 
M42 P6 S18 
G1 X31.55 Y2.09 Z26.00 F3500 
M42 P4 S62 
M42 P5 S140 
M42 P6 S18 
G1 X31.77 Y2.62 Z26.00 F3500 
M42 P4 S62 
M42 P5 S140 
M42 P6 S18 
G1 X32.29 Y3.79 Z26.00 F3500 
M42 P4 S65 
M42 P5 S151 
M42 P6 S19 
G1 X32.68 Y4.87 Z26.00 F3500 
M42 P4 S63 
M42 P5 S149 
M42 P6 S19 
G1 X33.20 Y6.11 Z26.00 F3500 
M42 P4 S67 
M42 P5 S158 
M42 P6 S20 
G1 X33.60 Y7.22 Z26.00 F3500 
M42 P4 S67 
M42 P5 S159 
M42 P6 S20 
G1 X34.00 Y8.57 Z26.00 F3500 
M42 P4 S68 
M42 P5 S164 
M42 P6 S21 
G1 X34.38 Y9.44 Z26.00 F3500 
M42 P4 S68 
M42 P5 S164 
M42 P6 S21 
G1 X34.63 Y10.26 Z26.00 F3500 
M42 P4 S69 
M42 P5 S166 
M42 P6 S20 
G1 X35.12 Y11.43 Z26.00 F3500 
M42 P4 S70 
M42 P5 S161 
M42 P6 S20 
G1 X35.26 Y11.89 Z26.00 F3500 
M42 P4 S69 
M42 P5 S160 
M42 P6 S20 
G1 X35.60 Y12.78 Z26.00 F3500 
M42 P4 S71 
M42 P5 S168 
M42 P6 S21 
G1 X35.79 Y13.40 Z26.00 F3500 
M42 P4 S72 
M42 P5 S172 
M42 P6 S22 
G1 X35.82 Y13.49 Z26.00 F3500 
M42 P4 S72 
M42 P5 S172 
M42 P6 S22 
G1 X35.94 Y14.04 Z26.00 F3500 
M42 P4 S72 
M42 P5 S172 
M42 P6 S22 
G1 X36.19 Y15.18 Z26.00 F3500 
M42 P4 S71 
M42 P5 S170 
M42 P6 S22 
G1 X36.36 Y16.21 Z26.00 F3500 
M42 P4 S73 
M42 P5 S177 
M42 P6 S23 
G1 X36.37 Y16.32 Z26.00 F3500 
M42 P4 S74 
M42 P5 S178 
M42 P6 S23 
G1 X36.38 Y16.39 Z26.00 F3500 
M42 P4 S74 
M42 P5 S178 
M42 P6 S23 
G1 X36.46 Y17.06 Z26.00 F3500 
M42 P4 S74 
M42 P5 S178 
M42 P6 S23 
G1 X36.46 Y17.11 Z26.00 F3500 
M42 P4 S74 
M42 P5 S178 
M42 P6 S23 
G1 X36.47 Y17.27 Z26.00 F3500 
M42 P4 S74 
M42 P5 S178 
M42 P6 S23 
G1 X36.61 Y19.42 Z26.00 F3500 
M42 P4 S75 
M42 P5 S180 
M42 P6 S23 
G1 X36.62 Y19.68 Z26.00 F3500 
M42 P4 S76 
M42 P5 S181 
M42 P6 S23 
G1 X36.61 Y20.11 Z26.00 F3500 
M42 P4 S76 
M42 P5 S182 
M42 P6 S23 
G1 X36.58 Y20.40 Z26.00 F3500 
M42 P4 S76 
M42 P5 S184 
M42 P6 S23 
G1 X36.51 Y20.91 Z26.00 F3500 
M42 P4 S77 
M42 P5 S187 
M42 P6 S24 
G1 X36.49 Y21.04 Z26.00 F3500 
M42 P4 S77 
M42 P5 S186 
M42 P6 S24 
G1 X36.35 Y21.78 Z26.00 F3500 
M42 P4 S77 
M42 P5 S188 
M42 P6 S24 
G1 X36.15 Y22.60 Z26.00 F3500 
M42 P4 S77 
M42 P5 S190 
M42 P6 S24 
G1 X35.99 Y23.18 Z26.00 F3500 
M42 P4 S78 
M42 P5 S192 
M42 P6 S24 
G1 X35.86 Y23.56 Z26.00 F3500 
M42 P4 S78 
M42 P5 S194 
M42 P6 S24 
G1 X35.71 Y23.91 Z26.00 F3500 
M42 P4 S77 
M42 P5 S192 
M42 P6 S24 
G1 X35.24 Y24.92 Z26.00 F3500 
M42 P4 S78 
M42 P5 S194 
M42 P6 S25 
G1 X34.73 Y25.92 Z26.00 F3500 
M42 P4 S78 
M42 P5 S201 
M42 P6 S26 
G1 X34.63 Y26.10 Z26.00 F3500 
M42 P4 S78 
M42 P5 S202 
M42 P6 S26 
G1 X34.23 Y26.72 Z26.00 F3500 
M42 P4 S78 
M42 P5 S196 
M42 P6 S25 
G1 X34.18 Y26.80 Z26.00 F3500 
M42 P4 S78 
M42 P5 S196 
M42 P6 S25 
G1 X33.75 Y27.37 Z26.00 F3500 
M42 P4 S77 
M42 P5 S196 
M42 P6 S25 
G1 X33.24 Y27.98 Z26.00 F3500 
M42 P4 S77 
M42 P5 S190 
M42 P6 S24 
G1 X32.42 Y28.96 Z26.00 F3500 
M42 P4 S77 
M42 P5 S190 
M42 P6 S24 
G1 X31.77 Y29.70 Z26.00 F3500 
M42 P4 S77 
M42 P5 S188 
M42 P6 S24 
G1 X31.03 Y30.48 Z26.00 F3500 
M42 P4 S76 
M42 P5 S188 
M42 P6 S24 
G1 X30.41 Y31.12 Z26.00 F3500 
M42 P4 S76 
M42 P5 S189 
M42 P6 S24 
G1 X29.74 Y31.80 Z26.00 F3500 
M42 P4 S76 
M42 P5 S187 
M42 P6 S23 
G1 X28.98 Y32.42 Z26.00 F3500 
M42 P4 S76 
M42 P5 S187 
M42 P6 S23 
G1 X28.40 Y32.87 Z26.00 F3500 
M42 P4 S77 
M42 P5 S187 
M42 P6 S23 
G1 X27.76 Y33.33 Z26.00 F3500 
M42 P4 S75 
M42 P5 S180 
M42 P6 S22 
G1 X27.36 Y33.57 Z26.00 F3500 
M42 P4 S76 
M42 P5 S181 
M42 P6 S23 
G1 X27.19 Y33.68 Z26.00 F3500 
M42 P4 S75 
M42 P5 S182 
M42 P6 S23 
G1 X26.97 Y33.80 Z26.00 F3500 
M42 P4 S75 
M42 P5 S186 
M42 P6 S23 
G1 X26.88 Y33.85 Z26.00 F3500 
M42 P4 S75 
M42 P5 S186 
M42 P6 S23 
G1 X26.78 Y33.89 Z26.00 F3500 
M42 P4 S75 
M42 P5 S184 
M42 P6 S23 
G1 X26.27 Y34.14 Z26.00 F3500 
M42 P4 S75 
M42 P5 S186 
M42 P6 S23 
G1 X25.54 Y34.41 Z26.00 F3500 
M42 P4 S75 
M42 P5 S186 
M42 P6 S23 
G1 X24.95 Y34.63 Z26.00 F3500 
M42 P4 S76 
M42 P5 S187 
M42 P6 S23 
G1 X24.48 Y34.79 Z26.00 F3500 
M42 P4 S75 
M42 P5 S186 
M42 P6 S23 
G1 X23.82 Y34.96 Z26.00 F3500 
M42 P4 S74 
M42 P5 S184 
M42 P6 S23 
G1 X23.39 Y35.07 Z26.00 F3500 
M42 P4 S74 
M42 P5 S186 
M42 P6 S23 
G1 X22.95 Y35.15 Z26.00 F3500 
M42 P4 S75 
M42 P5 S183 
M42 P6 S23 
G1 X22.48 Y35.21 Z26.00 F3500 
M42 P4 S75 
M42 P5 S181 
M42 P6 S23 
G1 X22.19 Y35.24 Z26.00 F3500 
M42 P4 S74 
M42 P5 S181 
M42 P6 S23 
G1 X20.64 Y35.34 Z26.00 F3500 
M42 P4 S73 
M42 P5 S181 
M42 P6 S23 
G1 X19.58 Y35.38 Z26.00 F3500 
M42 P4 S73 
M42 P5 S179 
M42 P6 S22 
G1 X19.57 Y35.38 Z26.00 F3500 
M42 P4 S73 
M42 P5 S181 
M42 P6 S22 
G1 X18.52 Y35.34 Z26.00 F3500 
M42 P4 S73 
M42 P5 S179 
M42 P6 S22 
G1 X14.63 Y35.05 Z26.00 F3500 
M42 P4 S69 
M42 P5 S166 
M42 P6 S20 
G1 X13.75 Y34.96 Z26.00 F3500 
M42 P4 S68 
M42 P5 S162 
M42 P6 S20 
G1 X13.59 Y34.94 Z26.00 F3500 
M42 P4 S68 
M42 P5 S162 
M42 P6 S20 
G1 X12.98 Y34.84 Z26.00 F3500 
M42 P4 S68 
M42 P5 S162 
M42 P6 S20 
G1 X8.75 Y33.97 Z26.00 F3500 
M42 P4 S67 
M42 P5 S160 
M42 P6 S21 
G1 X8.68 Y33.96 Z26.00 F3500 
M42 P4 S67 
M42 P5 S160 
M42 P6 S21 
G1 X8.59 Y33.94 Z26.00 F3500 
M42 P4 S67 
M42 P5 S160 
M42 P6 S21 
G1 X7.81 Y33.78 Z26.00 F3500 
M42 P4 S68 
M42 P5 S161 
M42 P6 S20 
G1 X5.92 Y33.25 Z26.00 F3500 
M42 P4 S66 
M42 P5 S157 
M42 P6 S20 
G1 X4.79 Y32.85 Z26.00 F3500 
M42 P4 S68 
M42 P5 S163 
M42 P6 S21 
G1 X4.45 Y32.74 Z26.00 F3500 
M42 P4 S69 
M42 P5 S164 
M42 P6 S21 
G1 X3.77 Y32.47 Z26.00 F3500 
M42 P4 S69 
M42 P5 S163 
M42 P6 S21 
G1 X-0.33 Y30.79 Z26.00 F3500 
M42 P4 S67 
M42 P5 S164 
M42 P6 S21 
G1 X-1.34 Y30.33 Z26.00 F3500 
M42 P4 S67 
M42 P5 S154 
M42 P6 S19 
G1 X-1.87 Y30.05 Z26.00 F3500 
M42 P4 S66 
M42 P5 S151 
M42 P6 S19 
G1 X-2.43 Y29.69 Z26.00 F3500 
M42 P4 S64 
M42 P5 S148 
M42 P6 S19 
G1 X-2.82 Y29.43 Z26.00 F3500 
M42 P4 S63 
M42 P5 S147 
M42 P6 S19 
G1 X-3.95 Y28.60 Z26.00 F3500 
M42 P4 S62 
M42 P5 S140 
M42 P6 S18 
G1 X-4.40 Y28.23 Z26.00 F3500 
M42 P4 S62 
M42 P5 S138 
M42 P6 S18 
G1 X-4.59 Y28.06 Z26.00 F3500 
M42 P4 S62 
M42 P5 S137 
M42 P6 S18 
G1 X-5.11 Y27.62 Z26.00 F3500 
M42 P4 S60 
M42 P5 S133 
M42 P6 S17 
G1 X-7.24 Y25.60 Z26.00 F3500 
M42 P4 S56 
M42 P5 S127 
M42 P6 S16 
G1 X-9.72 Y23.60 Z26.00 F3500 
M42 P4 S59 
M42 P5 S130 
M42 P6 S17 
G1 X-11.14 Y22.43 Z26.00 F3500 
M42 P4 S60 
M42 P5 S132 
M42 P6 S17 
G1 X-12.68 Y20.97 Z26.00 F3500 
M42 P4 S60 
M42 P5 S136 
M42 P6 S17 
G1 X-12.78 Y20.87 Z26.00 F3500 
M42 P4 S60 
M42 P5 S138 
M42 P6 S17 
G1 X-12.89 Y20.75 Z26.00 F3500 
M42 P4 S60 
M42 P5 S138 
M42 P6 S17 
G1 X-13.05 Y20.60 Z26.00 F3500 
M42 P4 S60 
M42 P5 S137 
M42 P6 S17 
G1 X-14.56 Y19.23 Z26.00 F3500 
M42 P4 S62 
M42 P5 S143 
M42 P6 S18 
G1 X-14.78 Y18.90 Z26.00 F3500 
M42 P4 S63 
M42 P5 S147 
M42 P6 S18 
G1 X-15.09 Y18.41 Z26.00 F3500 
M42 P4 S62 
M42 P5 S144 
M42 P6 S18 
G1 X-15.23 Y18.12 Z26.00 F3500 
M42 P4 S63 
M42 P5 S147 
M42 P6 S19 
G1 X-15.32 Y18.00 Z26.00 F3500 
M42 P4 S62 
M42 P5 S144 
M42 P6 S18 
G1 X-15.39 Y17.61 Z26.00 F3500 
M42 P4 S61 
M42 P5 S138 
M42 P6 S17 
G1 X-15.38 Y17.56 Z26.00 F3500 
M42 P4 S61 
M42 P5 S138 
M42 P6 S17 
G1 X-15.37 Y17.45 Z26.00 F3500 
M42 P4 S60 
M42 P5 S137 
M42 P6 S17 
G1 X-15.28 Y17.09 Z26.00 F3500 
M42 P4 S60 
M42 P5 S134 
M42 P6 S17 
G1 X-15.21 Y16.92 Z26.00 F3500 
M42 P4 S60 
M42 P5 S134 
M42 P6 S17 
G1 X-15.16 Y16.83 Z26.00 F3500 
M42 P4 S60 
M42 P5 S136 
M42 P6 S17 
G1 X-14.84 Y16.26 Z26.00 F3500 
M42 P4 S60 
M42 P5 S140 
M42 P6 S18 
G1 X-14.67 Y15.94 Z26.00 F3500 
M42 P4 S59 
M42 P5 S136 
M42 P6 S18 
G1 X-14.60 Y15.88 Z26.00 F3500 
M42 P4 S58 
M42 P5 S136 
M42 P6 S17 
G1 X-14.43 Y15.65 Z26.00 F3500 
M42 P4 S58 
M42 P5 S132 
M42 P6 S17 
G1 X-14.28 Y15.46 Z26.00 F3500 
M42 P4 S58 
M42 P5 S134 
M42 P6 S18 
M42 P4 S0 
M42 P5 S0 
M42 P6 S0 
G1 X19.67 Y-20.08 Z28.00 F3500 
M42 P4 S57 
M42 P5 S131 
M42 P6 S16 
G1 X19.74 Y-20.12 Z28.00 F3500 
M42 P4 S57 
M42 P5 S131 
M42 P6 S16 
G1 X19.80 Y-20.13 Z28.00 F3500 
M42 P4 S57 
M42 P5 S132 
M42 P6 S16 
G1 X19.97 Y-20.15 Z28.00 F3500 
M42 P4 S57 
M42 P5 S130 
M42 P6 S16 
G1 X19.98 Y-20.15 Z28.00 F3500 
M42 P4 S57 
M42 P5 S131 
M42 P6 S16 
G1 X20.08 Y-20.12 Z28.00 F3500 
M42 P4 S57 
M42 P5 S131 
M42 P6 S16 
G1 X20.17 Y-20.08 Z28.00 F3500 
M42 P4 S58 
M42 P5 S130 
M42 P6 S16 
G1 X20.23 Y-20.07 Z28.00 F3500 
M42 P4 S58 
M42 P5 S130 
M42 P6 S16 
G1 X21.10 Y-19.41 Z28.00 F3500 
M42 P4 S58 
M42 P5 S128 
M42 P6 S17 
G1 X21.37 Y-19.20 Z28.00 F3500 
M42 P4 S57 
M42 P5 S126 
M42 P6 S16 
G1 X21.87 Y-18.81 Z28.00 F3500 
M42 P4 S58 
M42 P5 S129 
M42 P6 S17 
G1 X22.28 Y-18.48 Z28.00 F3500 
M42 P4 S58 
M42 P5 S133 
M42 P6 S17 
G1 X22.54 Y-18.19 Z28.00 F3500 
M42 P4 S58 
M42 P5 S132 
M42 P6 S16 
G1 X23.12 Y-17.44 Z28.00 F3500 
M42 P4 S56 
M42 P5 S127 
M42 P6 S16 
G1 X23.53 Y-16.87 Z28.00 F3500 
M42 P4 S55 
M42 P5 S124 
M42 P6 S16 
G1 X23.61 Y-16.79 Z28.00 F3500 
M42 P4 S55 
M42 P5 S123 
M42 P6 S16 
G1 X26.16 Y-12.73 Z28.00 F3500 
M42 P4 S56 
M42 P5 S123 
M42 P6 S16 
G1 X26.37 Y-12.39 Z28.00 F3500 
M42 P4 S56 
M42 P5 S123 
M42 P6 S16 
G1 X27.65 Y-10.46 Z28.00 F3500 
M42 P4 S57 
M42 P5 S130 
M42 P6 S17 
G1 X29.16 Y-8.09 Z28.00 F3500 
M42 P4 S60 
M42 P5 S138 
M42 P6 S18 
G1 X30.80 Y-5.84 Z28.00 F3500 
M42 P4 S61 
M42 P5 S140 
M42 P6 S18 
G1 X31.18 Y-5.25 Z28.00 F3500 
M42 P4 S61 
M42 P5 S140 
M42 P6 S18 
G1 X31.64 Y-4.55 Z28.00 F3500 
M42 P4 S61 
M42 P5 S138 
M42 P6 S18 
G1 X32.59 Y-3.11 Z28.00 F3500 
M42 P4 S61 
M42 P5 S143 
M42 P6 S19 
G1 X33.95 Y-0.97 Z28.00 F3500 
M42 P4 S63 
M42 P5 S151 
M42 P6 S20 
G1 X34.04 Y-0.82 Z28.00 F3500 
M42 P4 S63 
M42 P5 S152 
M42 P6 S20 
G1 X34.23 Y-0.42 Z28.00 F3500 
M42 P4 S64 
M42 P5 S153 
M42 P6 S20 
G1 X34.63 Y0.48 Z28.00 F3500 
M42 P4 S66 
M42 P5 S158 
M42 P6 S20 
G1 X34.71 Y0.66 Z28.00 F3500 
M42 P4 S66 
M42 P5 S159 
M42 P6 S20 
G1 X35.28 Y2.14 Z28.00 F3500 
M42 P4 S67 
M42 P5 S161 
M42 P6 S21 
G1 X35.34 Y2.32 Z28.00 F3500 
M42 P4 S67 
M42 P5 S160 
M42 P6 S21 
G1 X36.01 Y4.69 Z28.00 F3500 
M42 P4 S69 
M42 P5 S163 
M42 P6 S21 
G1 X36.14 Y5.11 Z28.00 F3500 
M42 P4 S69 
M42 P5 S164 
M42 P6 S21 
G1 X36.53 Y6.98 Z28.00 F3500 
M42 P4 S71 
M42 P5 S168 
M42 P6 S21 
G1 X36.64 Y7.42 Z28.00 F3500 
M42 P4 S71 
M42 P5 S169 
M42 P6 S22 
G1 X36.67 Y7.57 Z28.00 F3500 
M42 P4 S71 
M42 P5 S169 
M42 P6 S21 
G1 X36.84 Y8.56 Z28.00 F3500 
M42 P4 S71 
M42 P5 S171 
M42 P6 S21 
G1 X37.16 Y10.12 Z28.00 F3500 
M42 P4 S71 
M42 P5 S172 
M42 P6 S22 
G1 X37.34 Y11.34 Z28.00 F3500 
M42 P4 S69 
M42 P5 S166 
M42 P6 S21 
G1 X37.38 Y11.62 Z28.00 F3500 
M42 P4 S68 
M42 P5 S164 
M42 P6 S21 
G1 X37.39 Y11.75 Z28.00 F3500 
M42 P4 S68 
M42 P5 S164 
M42 P6 S21 
G1 X37.44 Y12.28 Z28.00 F3500 
M42 P4 S69 
M42 P5 S166 
M42 P6 S21 
G1 X37.59 Y13.72 Z28.00 F3500 
M42 P4 S72 
M42 P5 S173 
M42 P6 S22 
G1 X37.61 Y13.85 Z28.00 F3500 
M42 P4 S72 
M42 P5 S173 
M42 P6 S22 
G1 X37.64 Y14.22 Z28.00 F3500 
M42 P4 S73 
M42 P5 S173 
M42 P6 S22 
G1 X37.74 Y15.84 Z28.00 F3500 
M42 P4 S75 
M42 P5 S181 
M42 P6 S23 
G1 X37.76 Y17.10 Z28.00 F3500 
M42 P4 S76 
M42 P5 S181 
M42 P6 S23 
G1 X37.76 Y17.26 Z28.00 F3500 
M42 P4 S76 
M42 P5 S182 
M42 P6 S23 
G1 X37.76 Y17.39 Z28.00 F3500 
M42 P4 S76 
M42 P5 S182 
M42 P6 S23 
G1 X37.73 Y18.73 Z28.00 F3500 
M42 P4 S75 
M42 P5 S180 
M42 P6 S23 
G1 X37.73 Y18.76 Z28.00 F3500 
M42 P4 S75 
M42 P5 S180 
M42 P6 S23 
G1 X37.73 Y18.77 Z28.00 F3500 
M42 P4 S75 
M42 P5 S180 
M42 P6 S23 
G1 X37.55 Y20.18 Z28.00 F3500 
M42 P4 S78 
M42 P5 S186 
M42 P6 S24 
G1 X37.53 Y20.34 Z28.00 F3500 
M42 P4 S78 
M42 P5 S186 
M42 P6 S24 
G1 X37.48 Y20.61 Z28.00 F3500 
M42 P4 S78 
M42 P5 S187 
M42 P6 S24 
G1 X37.28 Y21.49 Z28.00 F3500 
M42 P4 S77 
M42 P5 S189 
M42 P6 S24 
G1 X37.17 Y21.94 Z28.00 F3500 
M42 P4 S78 
M42 P5 S189 
M42 P6 S24 
G1 X37.01 Y22.57 Z28.00 F3500 
M42 P4 S78 
M42 P5 S191 
M42 P6 S24 
G1 X36.87 Y23.00 Z28.00 F3500 
M42 P4 S78 
M42 P5 S191 
M42 P6 S24 
G1 X36.74 Y23.35 Z28.00 F3500 
M42 P4 S78 
M42 P5 S193 
M42 P6 S24 
G1 X36.29 Y24.47 Z28.00 F3500 
M42 P4 S79 
M42 P5 S201 
M42 P6 S25 
G1 X36.14 Y24.77 Z28.00 F3500 
M42 P4 S79 
M42 P5 S202 
M42 P6 S26 
G1 X35.49 Y26.03 Z28.00 F3500 
M42 P4 S79 
M42 P5 S204 
M42 P6 S26 
G1 X35.22 Y26.47 Z28.00 F3500 
M42 P4 S79 
M42 P5 S203 
M42 P6 S26 
G1 X34.82 Y27.07 Z28.00 F3500 
M42 P4 S79 
M42 P5 S199 
M42 P6 S25 
G1 X34.36 Y27.76 Z28.00 F3500 
M42 P4 S79 
M42 P5 S198 
M42 P6 S25 
G1 X34.19 Y28.00 Z28.00 F3500 
M42 P4 S79 
M42 P5 S199 
M42 P6 S26 
G1 X33.37 Y29.03 Z28.00 F3500 
M42 P4 S78 
M42 P5 S196 
M42 P6 S25 
G1 X33.12 Y29.33 Z28.00 F3500 
M42 P4 S79 
M42 P5 S194 
M42 P6 S24 
G1 X32.97 Y29.50 Z28.00 F3500 
M42 P4 S78 
M42 P5 S194 
M42 P6 S24 
G1 X32.71 Y29.80 Z28.00 F3500 
M42 P4 S78 
M42 P5 S197 
M42 P6 S25 
G1 X32.33 Y30.20 Z28.00 F3500 
M42 P4 S78 
M42 P5 S198 
M42 P6 S25 
G1 X32.12 Y30.41 Z28.00 F3500 
M42 P4 S78 
M42 P5 S200 
M42 P6 S25 
G1 X31.37 Y31.13 Z28.00 F3500 
M42 P4 S78 
M42 P5 S197 
M42 P6 S25 
G1 X30.34 Y32.13 Z28.00 F3500 
M42 P4 S79 
M42 P5 S197 
M42 P6 S25 
G1 X29.87 Y32.55 Z28.00 F3500 
M42 P4 S78 
M42 P5 S193 
M42 P6 S25 
G1 X29.55 Y32.81 Z28.00 F3500 
M42 P4 S78 
M42 P5 S191 
M42 P6 S24 
G1 X29.34 Y32.97 Z28.00 F3500 
M42 P4 S78 
M42 P5 S191 
M42 P6 S24 
G1 X28.44 Y33.65 Z28.00 F3500 
M42 P4 S77 
M42 P5 S192 
M42 P6 S24 
G1 X28.03 Y33.92 Z28.00 F3500 
M42 P4 S77 
M42 P5 S193 
M42 P6 S24 
G1 X27.13 Y34.49 Z28.00 F3500 
M42 P4 S79 
M42 P5 S200 
M42 P6 S25 
G1 X26.38 Y34.90 Z28.00 F3500 
M42 P4 S80 
M42 P5 S201 
M42 P6 S25 
G1 X26.11 Y35.04 Z28.00 F3500 
M42 P4 S80 
M42 P5 S200 
M42 P6 S25 
G1 X25.93 Y35.13 Z28.00 F3500 
M42 P4 S80 
M42 P5 S200 
M42 P6 S25 
G1 X25.32 Y35.39 Z28.00 F3500 
M42 P4 S79 
M42 P5 S199 
M42 P6 S25 
G1 X24.96 Y35.55 Z28.00 F3500 
M42 P4 S78 
M42 P5 S197 
M42 P6 S24 
G1 X24.51 Y35.70 Z28.00 F3500 
M42 P4 S78 
M42 P5 S197 
M42 P6 S24 
G1 X23.89 Y35.89 Z28.00 F3500 
M42 P4 S77 
M42 P5 S191 
M42 P6 S24 
G1 X23.55 Y35.97 Z28.00 F3500 
M42 P4 S76 
M42 P5 S187 
M42 P6 S23 
G1 X22.96 Y36.15 Z28.00 F3500 
M42 P4 S76 
M42 P5 S190 
M42 P6 S24 
G1 X22.19 Y36.31 Z28.00 F3500 
M42 P4 S76 
M42 P5 S187 
M42 P6 S23 
G1 X21.67 Y36.43 Z28.00 F3500 
M42 P4 S76 
M42 P5 S187 
M42 P6 S23 
G1 X21.26 Y36.50 Z28.00 F3500 
M42 P4 S76 
M42 P5 S186 
M42 P6 S23 
G1 X20.77 Y36.57 Z28.00 F3500 
M42 P4 S75 
M42 P5 S184 
M42 P6 S23 
G1 X20.31 Y36.63 Z28.00 F3500 
M42 P4 S76 
M42 P5 S184 
M42 P6 S23 
G1 X20.05 Y36.67 Z28.00 F3500 
M42 P4 S75 
M42 P5 S183 
M42 P6 S23 
G1 X18.92 Y36.76 Z28.00 F3500 
M42 P4 S75 
M42 P5 S183 
M42 P6 S23 
G1 X17.72 Y36.85 Z28.00 F3500 
M42 P4 S75 
M42 P5 S181 
M42 P6 S23 
G1 X16.38 Y36.92 Z28.00 F3500 
M42 P4 S74 
M42 P5 S183 
M42 P6 S23 
G1 X16.16 Y36.92 Z28.00 F3500 
M42 P4 S74 
M42 P5 S182 
M42 P6 S23 
G1 X14.68 Y37.00 Z28.00 F3500 
M42 P4 S73 
M42 P5 S178 
M42 P6 S22 
G1 X14.41 Y37.00 Z28.00 F3500 
M42 P4 S73 
M42 P5 S179 
M42 P6 S23 
G1 X12.50 Y37.09 Z28.00 F3500 
M42 P4 S72 
M42 P5 S178 
M42 P6 S22 
G1 X12.39 Y37.09 Z28.00 F3500 
M42 P4 S72 
M42 P5 S177 
M42 P6 S22 
G1 X11.92 Y37.09 Z28.00 F3500 
M42 P4 S72 
M42 P5 S178 
M42 P6 S22 
G1 X10.54 Y37.09 Z28.00 F3500 
M42 P4 S70 
M42 P5 S173 
M42 P6 S22 
G1 X9.35 Y37.07 Z28.00 F3500 
M42 P4 S69 
M42 P5 S168 
M42 P6 S21 
G1 X8.69 Y37.01 Z28.00 F3500 
M42 P4 S69 
M42 P5 S168 
M42 P6 S21 
G1 X7.72 Y36.89 Z28.00 F3500 
M42 P4 S69 
M42 P5 S163 
M42 P6 S21 
G1 X4.68 Y36.41 Z28.00 F3500 
M42 P4 S69 
M42 P5 S159 
M42 P6 S20 
G1 X4.62 Y36.40 Z28.00 F3500 
M42 P4 S69 
M42 P5 S159 
M42 P6 S20 
G1 X4.54 Y36.38 Z28.00 F3500 
M42 P4 S69 
M42 P5 S159 
M42 P6 S20 
G1 X4.48 Y36.36 Z28.00 F3500 
M42 P4 S69 
M42 P5 S159 
M42 P6 S20 
G1 X3.16 Y35.99 Z28.00 F3500 
M42 P4 S69 
M42 P5 S161 
M42 P6 S21 
G1 X2.19 Y35.67 Z28.00 F3500 
M42 P4 S69 
M42 P5 S164 
M42 P6 S21 
G1 X1.14 Y35.34 Z28.00 F3500 
M42 P4 S69 
M42 P5 S168 
M42 P6 S21 
G1 X0.38 Y35.03 Z28.00 F3500 
M42 P4 S69 
M42 P5 S170 
M42 P6 S21 
G1 X-0.66 Y34.59 Z28.00 F3500 
M42 P4 S69 
M42 P5 S169 
M42 P6 S21 
G1 X-1.38 Y34.28 Z28.00 F3500 
M42 P4 S69 
M42 P5 S166 
M42 P6 S20 
G1 X-2.89 Y33.58 Z28.00 F3500 
M42 P4 S67 
M42 P5 S157 
M42 P6 S20 
G1 X-4.13 Y32.92 Z28.00 F3500 
M42 P4 S66 
M42 P5 S158 
M42 P6 S20 
G1 X-4.45 Y32.73 Z28.00 F3500 
M42 P4 S66 
M42 P5 S156 
M42 P6 S20 
G1 X-4.76 Y32.49 Z28.00 F3500 
M42 P4 S65 
M42 P5 S153 
M42 P6 S19 
G1 X-5.45 Y31.99 Z28.00 F3500 
M42 P4 S64 
M42 P5 S149 
M42 P6 S19 
G1 X-5.92 Y31.60 Z28.00 F3500 
M42 P4 S62 
M42 P5 S143 
M42 P6 S18 
G1 X-6.74 Y30.91 Z28.00 F3500 
M42 P4 S60 
M42 P5 S138 
M42 P6 S18 
G1 X-7.27 Y30.45 Z28.00 F3500 
M42 P4 S60 
M42 P5 S131 
M42 P6 S17 
G1 X-9.59 Y28.14 Z28.00 F3500 
M42 P4 S58 
M42 P5 S132 
M42 P6 S17 
G1 X-10.06 Y27.67 Z28.00 F3500 
M42 P4 S57 
M42 P5 S132 
M42 P6 S17 
G1 X-10.17 Y27.58 Z28.00 F3500 
M42 P4 S57 
M42 P5 S132 
M42 P6 S17 
G1 X-11.18 Y26.70 Z28.00 F3500 
M42 P4 S58 
M42 P5 S133 
M42 P6 S17 
G1 X-13.07 Y25.04 Z28.00 F3500 
M42 P4 S60 
M42 P5 S134 
M42 P6 S17 
G1 X-13.33 Y24.81 Z28.00 F3500 
M42 P4 S60 
M42 P5 S136 
M42 P6 S17 
G1 X-13.83 Y24.35 Z28.00 F3500 
M42 P4 S61 
M42 P5 S137 
M42 P6 S17 
G1 X-15.65 Y22.64 Z28.00 F3500 
M42 P4 S62 
M42 P5 S146 
M42 P6 S18 
G1 X-16.38 Y22.01 Z28.00 F3500 
M42 P4 S62 
M42 P5 S144 
M42 P6 S18 
G1 X-17.03 Y21.39 Z28.00 F3500 
M42 P4 S62 
M42 P5 S144 
M42 P6 S18 
G1 X-17.59 Y20.86 Z28.00 F3500 
M42 P4 S61 
M42 P5 S143 
M42 P6 S18 
G1 X-18.48 Y19.96 Z28.00 F3500 
M42 P4 S62 
M42 P5 S143 
M42 P6 S18 
G1 X-18.76 Y19.68 Z28.00 F3500 
M42 P4 S62 
M42 P5 S143 
M42 P6 S18 
G1 X-18.90 Y19.52 Z28.00 F3500 
M42 P4 S63 
M42 P5 S143 
M42 P6 S18 
G1 X-19.18 Y19.13 Z28.00 F3500 
M42 P4 S64 
M42 P5 S148 
M42 P6 S18 
G1 X-19.32 Y18.95 Z28.00 F3500 
M42 P4 S64 
M42 P5 S148 
M42 P6 S18 
G1 X-19.65 Y18.38 Z28.00 F3500 
M42 P4 S61 
M42 P5 S140 
M42 P6 S17 
G1 X-19.89 Y17.55 Z28.00 F3500 
M42 P4 S54 
M42 P5 S127 
M42 P6 S16 
G1 X-19.92 Y17.37 Z28.00 F3500 
M42 P4 S52 
M42 P5 S119 
M42 P6 S15 
G1 X-19.90 Y17.22 Z28.00 F3500 
M42 P4 S52 
M42 P5 S119 
M42 P6 S15 
G1 X-19.81 Y17.05 Z28.00 F3500 
M42 P4 S50 
M42 P5 S116 
M42 P6 S14 
M42 P4 S0 
M42 P5 S0 
M42 P6 S0 
G1 X20.33 Y-23.30 Z30.00 F3500 
M42 P4 S60 
M42 P5 S138 
M42 P6 S17 
G1 X20.35 Y-23.29 Z30.00 F3500 
M42 P4 S60 
M42 P5 S136 
M42 P6 S16 
G1 X20.94 Y-23.02 Z30.00 F3500 
M42 P4 S60 
M42 P5 S133 
M42 P6 S17 
G1 X21.20 Y-22.82 Z30.00 F3500 
M42 P4 S60 
M42 P5 S136 
M42 P6 S17 
G1 X21.49 Y-22.49 Z30.00 F3500 
M42 P4 S61 
M42 P5 S138 
M42 P6 S17 
G1 X22.60 Y-21.37 Z30.00 F3500 
M42 P4 S60 
M42 P5 S134 
M42 P6 S17 
G1 X23.59 Y-20.30 Z30.00 F3500 
M42 P4 S62 
M42 P5 S139 
M42 P6 S18 
G1 X24.60 Y-19.12 Z30.00 F3500 
M42 P4 S60 
M42 P5 S133 
M42 P6 S17 
G1 X24.73 Y-18.96 Z30.00 F3500 
M42 P4 S60 
M42 P5 S133 
M42 P6 S17 
G1 X26.07 Y-17.05 Z30.00 F3500 
M42 P4 S60 
M42 P5 S136 
M42 P6 S17 
G1 X27.10 Y-15.51 Z30.00 F3500 
M42 P4 S60 
M42 P5 S134 
M42 P6 S17 
G1 X27.18 Y-15.41 Z30.00 F3500 
M42 P4 S60 
M42 P5 S133 
M42 P6 S17 
G1 X27.33 Y-15.21 Z30.00 F3500 
M42 P4 S60 
M42 P5 S133 
M42 P6 S17 
G1 X28.48 Y-13.56 Z30.00 F3500 
M42 P4 S57 
M42 P5 S128 
M42 P6 S16 
G1 X29.99 Y-11.53 Z30.00 F3500 
M42 P4 S60 
M42 P5 S140 
M42 P6 S18 
G1 X30.70 Y-10.52 Z30.00 F3500 
M42 P4 S61 
M42 P5 S144 
M42 P6 S18 
G1 X30.88 Y-10.29 Z30.00 F3500 
M42 P4 S62 
M42 P5 S146 
M42 P6 S18 
G1 X33.24 Y-7.25 Z30.00 F3500 
M42 P4 S64 
M42 P5 S151 
M42 P6 S20 
G1 X33.47 Y-6.93 Z30.00 F3500 
M42 P4 S64 
M42 P5 S152 
M42 P6 S20 
G1 X35.03 Y-4.73 Z30.00 F3500 
M42 P4 S63 
M42 P5 S153 
M42 P6 S20 
G1 X35.25 Y-4.41 Z30.00 F3500 
M42 P4 S63 
M42 P5 S153 
M42 P6 S20 
G1 X35.26 Y-4.39 Z30.00 F3500 
M42 P4 S63 
M42 P5 S153 
M42 P6 S20 
G1 X35.55 Y-3.86 Z30.00 F3500 
M42 P4 S65 
M42 P5 S152 
M42 P6 S20 
G1 X36.44 Y-2.28 Z30.00 F3500 
M42 P4 S67 
M42 P5 S161 
M42 P6 S21 
G1 X36.55 Y-2.07 Z30.00 F3500 
M42 P4 S68 
M42 P5 S161 
M42 P6 S21 
G1 X36.63 Y-1.88 Z30.00 F3500 
M42 P4 S68 
M42 P5 S161 
M42 P6 S21 
G1 X36.82 Y-1.38 Z30.00 F3500 
M42 P4 S68 
M42 P5 S162 
M42 P6 S21 
G1 X37.22 Y-0.33 Z30.00 F3500 
M42 P4 S69 
M42 P5 S166 
M42 P6 S21 
G1 X37.32 Y-0.01 Z30.00 F3500 
M42 P4 S69 
M42 P5 S164 
M42 P6 S21 
G1 X37.53 Y0.77 Z30.00 F3500 
M42 P4 S69 
M42 P5 S168 
M42 P6 S21 
G1 X37.73 Y1.42 Z30.00 F3500 
M42 P4 S70 
M42 P5 S168 
M42 P6 S21 
G1 X37.91 Y2.06 Z30.00 F3500 
M42 P4 S70 
M42 P5 S169 
M42 P6 S22 
G1 X38.06 Y2.67 Z30.00 F3500 
M42 P4 S70 
M42 P5 S170 
M42 P6 S21 
G1 X38.21 Y3.27 Z30.00 F3500 
M42 P4 S71 
M42 P5 S169 
M42 P6 S21 
G1 X38.32 Y3.90 Z30.00 F3500 
M42 P4 S71 
M42 P5 S172 
M42 P6 S21 
G1 X38.56 Y5.71 Z30.00 F3500 
M42 P4 S71 
M42 P5 S177 
M42 P6 S22 
G1 X38.61 Y6.39 Z30.00 F3500 
M42 P4 S71 
M42 P5 S177 
M42 P6 S22 
G1 X38.71 Y7.84 Z30.00 F3500 
M42 P4 S72 
M42 P5 S177 
M42 P6 S22 
G1 X38.78 Y8.95 Z30.00 F3500 
M42 P4 S73 
M42 P5 S174 
M42 P6 S22 
G1 X38.76 Y10.03 Z30.00 F3500 
M42 P4 S73 
M42 P5 S176 
M42 P6 S22 
G1 X38.75 Y10.95 Z30.00 F3500 
M42 P4 S74 
M42 P5 S180 
M42 P6 S22 
G1 X38.76 Y11.41 Z30.00 F3500 
M42 P4 S74 
M42 P5 S181 
M42 P6 S22 
G1 X38.78 Y11.71 Z30.00 F3500 
M42 P4 S74 
M42 P5 S183 
M42 P6 S22 
G1 X38.74 Y13.60 Z30.00 F3500 
M42 P4 S76 
M42 P5 S186 
M42 P6 S23 
G1 X38.66 Y15.16 Z30.00 F3500 
M42 P4 S76 
M42 P5 S190 
M42 P6 S23 
G1 X38.66 Y15.40 Z30.00 F3500 
M42 P4 S76 
M42 P5 S190 
M42 P6 S23 
G1 X38.65 Y15.65 Z30.00 F3500 
M42 P4 S76 
M42 P5 S190 
M42 P6 S23 
G1 X38.63 Y16.38 Z30.00 F3500 
M42 P4 S76 
M42 P5 S189 
M42 P6 S24 
G1 X38.58 Y17.18 Z30.00 F3500 
M42 P4 S77 
M42 P5 S188 
M42 P6 S24 
G1 X38.52 Y17.74 Z30.00 F3500 
M42 P4 S77 
M42 P5 S187 
M42 P6 S24 
G1 X38.26 Y19.52 Z30.00 F3500 
M42 P4 S77 
M42 P5 S190 
M42 P6 S24 
G1 X38.20 Y19.83 Z30.00 F3500 
M42 P4 S77 
M42 P5 S188 
M42 P6 S24 
G1 X37.96 Y20.88 Z30.00 F3500 
M42 P4 S77 
M42 P5 S183 
M42 P6 S23 
G1 X37.87 Y21.26 Z30.00 F3500 
M42 P4 S78 
M42 P5 S188 
M42 P6 S23 
G1 X37.69 Y21.79 Z30.00 F3500 
M42 P4 S78 
M42 P5 S188 
M42 P6 S24 
G1 X37.26 Y23.08 Z30.00 F3500 
M42 P4 S79 
M42 P5 S194 
M42 P6 S25 
G1 X36.92 Y23.89 Z30.00 F3500 
M42 P4 S78 
M42 P5 S193 
M42 P6 S25 
G1 X36.71 Y24.37 Z30.00 F3500 
M42 P4 S78 
M42 P5 S193 
M42 P6 S25 
G1 X36.64 Y24.51 Z30.00 F3500 
M42 P4 S79 
M42 P5 S194 
M42 P6 S25 
G1 X35.99 Y25.79 Z30.00 F3500 
M42 P4 S78 
M42 P5 S192 
M42 P6 S25 
G1 X35.75 Y26.20 Z30.00 F3500 
M42 P4 S79 
M42 P5 S197 
M42 P6 S25 
G1 X35.55 Y26.51 Z30.00 F3500 
M42 P4 S81 
M42 P5 S203 
M42 P6 S26 
G1 X35.32 Y26.85 Z30.00 F3500 
M42 P4 S81 
M42 P5 S203 
M42 P6 S26 
G1 X35.18 Y27.11 Z30.00 F3500 
M42 P4 S80 
M42 P5 S203 
M42 P6 S26 
G1 X34.91 Y27.48 Z30.00 F3500 
M42 P4 S80 
M42 P5 S201 
M42 P6 S26 
G1 X34.25 Y28.33 Z30.00 F3500 
M42 P4 S80 
M42 P5 S198 
M42 P6 S25 
G1 X34.06 Y28.58 Z30.00 F3500 
M42 P4 S80 
M42 P5 S197 
M42 P6 S25 
G1 X33.66 Y29.06 Z30.00 F3500 
M42 P4 S80 
M42 P5 S200 
M42 P6 S26 
G1 X32.97 Y29.86 Z30.00 F3500 
M42 P4 S79 
M42 P5 S197 
M42 P6 S25 
G1 X32.87 Y29.96 Z30.00 F3500 
M42 P4 S79 
M42 P5 S197 
M42 P6 S25 
G1 X32.79 Y30.05 Z30.00 F3500 
M42 P4 S79 
M42 P5 S197 
M42 P6 S25 
G1 X31.88 Y30.95 Z30.00 F3500 
M42 P4 S81 
M42 P5 S199 
M42 P6 S26 
G1 X31.51 Y31.29 Z30.00 F3500 
M42 P4 S81 
M42 P5 S199 
M42 P6 S26 
G1 X30.22 Y32.53 Z30.00 F3500 
M42 P4 S81 
M42 P5 S204 
M42 P6 S26 
G1 X29.52 Y33.16 Z30.00 F3500 
M42 P4 S80 
M42 P5 S206 
M42 P6 S26 
G1 X29.47 Y33.20 Z30.00 F3500 
M42 P4 S80 
M42 P5 S206 
M42 P6 S26 
G1 X29.47 Y33.20 Z30.00 F3500 
M42 P4 S80 
M42 P5 S206 
M42 P6 S26 
G1 X28.47 Y33.98 Z30.00 F3500 
M42 P4 S81 
M42 P5 S202 
M42 P6 S26 
G1 X28.45 Y33.99 Z30.00 F3500 
M42 P4 S81 
M42 P5 S202 
M42 P6 S26 
G1 X27.51 Y34.61 Z30.00 F3500 
M42 P4 S81 
M42 P5 S213 
M42 P6 S27 
G1 X27.42 Y34.68 Z30.00 F3500 
M42 P4 S81 
M42 P5 S213 
M42 P6 S27 
G1 X26.37 Y35.31 Z30.00 F3500 
M42 P4 S81 
M42 P5 S210 
M42 P6 S26 
G1 X26.18 Y35.42 Z30.00 F3500 
M42 P4 S81 
M42 P5 S210 
M42 P6 S26 
G1 X25.37 Y35.83 Z30.00 F3500 
M42 P4 S80 
M42 P5 S204 
M42 P6 S26 
G1 X25.32 Y35.86 Z30.00 F3500 
M42 P4 S80 
M42 P5 S203 
M42 P6 S26 
G1 X25.30 Y35.87 Z30.00 F3500 
M42 P4 S80 
M42 P5 S203 
M42 P6 S26 
G1 X25.21 Y35.91 Z30.00 F3500 
M42 P4 S80 
M42 P5 S203 
M42 P6 S26 
G1 X24.79 Y36.09 Z30.00 F3500 
M42 P4 S79 
M42 P5 S200 
M42 P6 S25 
G1 X23.82 Y36.48 Z30.00 F3500 
M42 P4 S78 
M42 P5 S194 
M42 P6 S24 
G1 X23.49 Y36.60 Z30.00 F3500 
M42 P4 S77 
M42 P5 S191 
M42 P6 S24 
G1 X22.47 Y36.92 Z30.00 F3500 
M42 P4 S77 
M42 P5 S190 
M42 P6 S24 
G1 X21.81 Y37.10 Z30.00 F3500 
M42 P4 S77 
M42 P5 S189 
M42 P6 S23 
G1 X21.44 Y37.18 Z30.00 F3500 
M42 P4 S77 
M42 P5 S190 
M42 P6 S23 
G1 X20.27 Y37.46 Z30.00 F3500 
M42 P4 S77 
M42 P5 S189 
M42 P6 S24 
G1 X19.98 Y37.52 Z30.00 F3500 
M42 P4 S77 
M42 P5 S189 
M42 P6 S24 
G1 X17.95 Y37.89 Z30.00 F3500 
M42 P4 S76 
M42 P5 S186 
M42 P6 S23 
G1 X17.44 Y37.95 Z30.00 F3500 
M42 P4 S76 
M42 P5 S186 
M42 P6 S23 
G1 X16.27 Y38.11 Z30.00 F3500 
M42 P4 S75 
M42 P5 S181 
M42 P6 S22 
G1 X16.17 Y38.13 Z30.00 F3500 
M42 P4 S75 
M42 P5 S181 
M42 P6 S22 
G1 X15.52 Y38.21 Z30.00 F3500 
M42 P4 S77 
M42 P5 S186 
M42 P6 S23 
G1 X15.34 Y38.23 Z30.00 F3500 
M42 P4 S76 
M42 P5 S187 
M42 P6 S23 
G1 X13.74 Y38.53 Z30.00 F3500 
M42 P4 S76 
M42 P5 S189 
M42 P6 S23 
G1 X13.53 Y38.56 Z30.00 F3500 
M42 P4 S75 
M42 P5 S190 
M42 P6 S23 
G1 X13.40 Y38.59 Z30.00 F3500 
M42 P4 S75 
M42 P5 S190 
M42 P6 S23 
G1 X13.30 Y38.62 Z30.00 F3500 
M42 P4 S75 
M42 P5 S190 
M42 P6 S23 
G1 X13.26 Y38.63 Z30.00 F3500 
M42 P4 S75 
M42 P5 S190 
M42 P6 S23 
G1 X12.85 Y38.72 Z30.00 F3500 
M42 P4 S74 
M42 P5 S182 
M42 P6 S23 
G1 X11.27 Y38.92 Z30.00 F3500 
M42 P4 S75 
M42 P5 S184 
M42 P6 S23 
G1 X10.85 Y39.00 Z30.00 F3500 
M42 P4 S74 
M42 P5 S183 
M42 P6 S23 
G1 X9.89 Y39.10 Z30.00 F3500 
M42 P4 S75 
M42 P5 S183 
M42 P6 S22 
G1 X9.59 Y39.14 Z30.00 F3500 
M42 P4 S75 
M42 P5 S182 
M42 P6 S22 
G1 X9.46 Y39.14 Z30.00 F3500 
M42 P4 S75 
M42 P5 S182 
M42 P6 S22 
G1 X8.79 Y39.15 Z30.00 F3500 
M42 P4 S74 
M42 P5 S179 
M42 P6 S23 
G1 X6.87 Y39.16 Z30.00 F3500 
M42 P4 S74 
M42 P5 S180 
M42 P6 S23 
G1 X6.64 Y39.17 Z30.00 F3500 
M42 P4 S74 
M42 P5 S179 
M42 P6 S22 
G1 X5.93 Y39.10 Z30.00 F3500 
M42 P4 S75 
M42 P5 S181 
M42 P6 S23 
G1 X4.67 Y38.93 Z30.00 F3500 
M42 P4 S72 
M42 P5 S178 
M42 P6 S22 
G1 X4.35 Y38.88 Z30.00 F3500 
M42 P4 S72 
M42 P5 S177 
M42 P6 S22 
G1 X2.94 Y38.59 Z30.00 F3500 
M42 P4 S71 
M42 P5 S170 
M42 P6 S21 
G1 X2.67 Y38.53 Z30.00 F3500 
M42 P4 S71 
M42 P5 S169 
M42 P6 S21 
G1 X1.57 Y38.24 Z30.00 F3500 
M42 P4 S70 
M42 P5 S170 
M42 P6 S21 
G1 X1.45 Y38.20 Z30.00 F3500 
M42 P4 S71 
M42 P5 S169 
M42 P6 S21 
G1 X0.35 Y37.87 Z30.00 F3500 
M42 P4 S72 
M42 P5 S172 
M42 P6 S21 
G1 X-0.14 Y37.69 Z30.00 F3500 
M42 P4 S70 
M42 P5 S170 
M42 P6 S21 
G1 X-2.14 Y36.94 Z30.00 F3500 
M42 P4 S70 
M42 P5 S166 
M42 P6 S21 
G1 X-2.43 Y36.82 Z30.00 F3500 
M42 P4 S70 
M42 P5 S166 
M42 P6 S21 
G1 X-2.92 Y36.60 Z30.00 F3500 
M42 P4 S70 
M42 P5 S164 
M42 P6 S21 
G1 X-3.73 Y36.23 Z30.00 F3500 
M42 P4 S69 
M42 P5 S163 
M42 P6 S21 
G1 X-4.64 Y35.75 Z30.00 F3500 
M42 P4 S69 
M42 P5 S161 
M42 P6 S20 
G1 X-5.32 Y35.38 Z30.00 F3500 
M42 P4 S68 
M42 P5 S159 
M42 P6 S20 
G1 X-6.09 Y34.90 Z30.00 F3500 
M42 P4 S68 
M42 P5 S159 
M42 P6 S20 
G1 X-6.86 Y34.41 Z30.00 F3500 
M42 P4 S66 
M42 P5 S154 
M42 P6 S19 
G1 X-7.09 Y34.24 Z30.00 F3500 
M42 P4 S65 
M42 P5 S154 
M42 P6 S19 
G1 X-7.91 Y33.63 Z30.00 F3500 
M42 P4 S65 
M42 P5 S152 
M42 P6 S19 
G1 X-8.44 Y33.22 Z30.00 F3500 
M42 P4 S65 
M42 P5 S151 
M42 P6 S19 
G1 X-8.60 Y33.09 Z30.00 F3500 
M42 P4 S65 
M42 P5 S150 
M42 P6 S19 
G1 X-9.23 Y32.50 Z30.00 F3500 
M42 P4 S65 
M42 P5 S149 
M42 P6 S18 
G1 X-9.75 Y32.03 Z30.00 F3500 
M42 P4 S64 
M42 P5 S147 
M42 P6 S19 
G1 X-9.83 Y31.95 Z30.00 F3500 
M42 P4 S63 
M42 P5 S147 
M42 P6 S19 
G1 X-9.95 Y31.82 Z30.00 F3500 
M42 P4 S63 
M42 P5 S146 
M42 P6 S19 
G1 X-12.62 Y29.04 Z30.00 F3500 
M42 P4 S60 
M42 P5 S131 
M42 P6 S16 
G1 X-14.07 Y27.64 Z30.00 F3500 
M42 P4 S60 
M42 P5 S132 
M42 P6 S16 
G1 X-15.52 Y26.31 Z30.00 F3500 
M42 P4 S61 
M42 P5 S138 
M42 P6 S18 
G1 X-15.95 Y25.89 Z30.00 F3500 
M42 P4 S62 
M42 P5 S140 
M42 P6 S18 
G1 X-16.46 Y25.32 Z30.00 F3500 
M42 P4 S61 
M42 P5 S141 
M42 P6 S17 
G1 X-17.12 Y24.73 Z30.00 F3500 
M42 P4 S60 
M42 P5 S140 
M42 P6 S17 
G1 X-18.00 Y23.79 Z30.00 F3500 
M42 P4 S61 
M42 P5 S141 
M42 P6 S18 
G1 X-19.77 Y21.97 Z30.00 F3500 
M42 P4 S61 
M42 P5 S139 
M42 P6 S18 
G1 X-20.39 Y21.35 Z30.00 F3500 
M42 P4 S61 
M42 P5 S140 
M42 P6 S18 
G1 X-22.57 Y18.95 Z30.00 F3500 
M42 P4 S62 
M42 P5 S141 
M42 P6 S17 
G1 X-22.89 Y18.59 Z30.00 F3500 
M42 P4 S62 
M42 P5 S141 
M42 P6 S18 
G1 X-22.96 Y18.49 Z30.00 F3500 
M42 P4 S62 
M42 P5 S141 
M42 P6 S18 
G1 X-23.28 Y18.17 Z30.00 F3500 
M42 P4 S45 
M42 P5 S101 
M42 P6 S13 
G1 X-23.56 Y17.79 Z30.00 F3500 
M42 P4 S37 
M42 P5 S83 
M42 P6 S11 
G1 X-23.56 Y17.73 Z30.00 F3500 
M42 P4 S36 
M42 P5 S79 
M42 P6 S10 
G1 X-23.58 Y17.68 Z30.00 F3500 
M42 P4 S34 
M42 P5 S77 
M42 P6 S10 
G1 X-23.59 Y17.53 Z30.00 F3500 
M42 P4 S24 
M42 P5 S57 
M42 P6 S8 
G1 X-23.59 Y17.48 Z30.00 F3500 
M42 P4 S22 
M42 P5 S52 
M42 P6 S8 
M42 P4 S0 
M42 P5 S0 
M42 P6 S0 
G1 X20.38 Y-25.42 Z32.00 F3500 
M42 P4 S58 
M42 P5 S132 
M42 P6 S17 
G1 X20.54 Y-25.38 Z32.00 F3500 
M42 P4 S59 
M42 P5 S133 
M42 P6 S17 
G1 X20.72 Y-25.35 Z32.00 F3500 
M42 P4 S58 
M42 P5 S134 
M42 P6 S17 
G1 X20.95 Y-25.22 Z32.00 F3500 
M42 P4 S58 
M42 P5 S131 
M42 P6 S17 
G1 X21.03 Y-25.18 Z32.00 F3500 
M42 P4 S58 
M42 P5 S131 
M42 P6 S17 
G1 X21.51 Y-24.80 Z32.00 F3500 
M42 P4 S60 
M42 P5 S136 
M42 P6 S18 
G1 X21.65 Y-24.69 Z32.00 F3500 
M42 P4 S61 
M42 P5 S136 
M42 P6 S18 
G1 X21.76 Y-24.60 Z32.00 F3500 
M42 P4 S60 
M42 P5 S136 
M42 P6 S18 
G1 X22.30 Y-24.06 Z32.00 F3500 
M42 P4 S61 
M42 P5 S138 
M42 P6 S18 
G1 X23.01 Y-23.32 Z32.00 F3500 
M42 P4 S63 
M42 P5 S140 
M42 P6 S18 
G1 X23.79 Y-22.49 Z32.00 F3500 
M42 P4 S64 
M42 P5 S143 
M42 P6 S19 
G1 X24.22 Y-22.04 Z32.00 F3500 
M42 P4 S64 
M42 P5 S146 
M42 P6 S19 
G1 X24.74 Y-21.42 Z32.00 F3500 
M42 P4 S64 
M42 P5 S144 
M42 P6 S18 
G1 X26.15 Y-19.78 Z32.00 F3500 
M42 P4 S62 
M42 P5 S138 
M42 P6 S17 
G1 X26.61 Y-19.20 Z32.00 F3500 
M42 P4 S61 
M42 P5 S137 
M42 P6 S17 
G1 X29.14 Y-15.89 Z32.00 F3500 
M42 P4 S59 
M42 P5 S128 
M42 P6 S16 
G1 X29.90 Y-14.94 Z32.00 F3500 
M42 P4 S57 
M42 P5 S124 
M42 P6 S16 
G1 X30.31 Y-14.43 Z32.00 F3500 
M42 P4 S58 
M42 P5 S127 
M42 P6 S16 
G1 X31.69 Y-12.73 Z32.00 F3500 
M42 P4 S60 
M42 P5 S142 
M42 P6 S18 
G1 X31.73 Y-12.69 Z32.00 F3500 
M42 P4 S60 
M42 P5 S143 
M42 P6 S18 
G1 X32.83 Y-11.34 Z32.00 F3500 
M42 P4 S62 
M42 P5 S140 
M42 P6 S17 
G1 X35.49 Y-8.00 Z32.00 F3500 
M42 P4 S66 
M42 P5 S148 
M42 P6 S19 
G1 X35.94 Y-7.44 Z32.00 F3500 
M42 P4 S66 
M42 P5 S156 
M42 P6 S19 
G1 X35.96 Y-7.43 Z32.00 F3500 
M42 P4 S66 
M42 P5 S156 
M42 P6 S19 
G1 X35.97 Y-7.41 Z32.00 F3500 
M42 P4 S66 
M42 P5 S156 
M42 P6 S19 
G1 X37.15 Y-5.60 Z32.00 F3500 
M42 P4 S67 
M42 P5 S156 
M42 P6 S19 
G1 X37.33 Y-5.31 Z32.00 F3500 
M42 P4 S67 
M42 P5 S157 
M42 P6 S20 
G1 X38.39 Y-3.28 Z32.00 F3500 
M42 P4 S69 
M42 P5 S167 
M42 P6 S21 
G1 X38.40 Y-3.26 Z32.00 F3500 
M42 P4 S69 
M42 P5 S167 
M42 P6 S21 
G1 X38.82 Y-2.26 Z32.00 F3500 
M42 P4 S70 
M42 P5 S164 
M42 P6 S21 
G1 X39.03 Y-1.73 Z32.00 F3500 
M42 P4 S70 
M42 P5 S168 
M42 P6 S21 
G1 X39.23 Y-1.22 Z32.00 F3500 
M42 P4 S71 
M42 P5 S167 
M42 P6 S21 
G1 X39.25 Y-1.15 Z32.00 F3500 
M42 P4 S71 
M42 P5 S167 
M42 P6 S21 
G1 X39.43 Y-0.46 Z32.00 F3500 
M42 P4 S71 
M42 P5 S168 
M42 P6 S21 
G1 X39.55 Y0.02 Z32.00 F3500 
M42 P4 S71 
M42 P5 S169 
M42 P6 S21 
G1 X39.64 Y0.59 Z32.00 F3500 
M42 P4 S72 
M42 P5 S170 
M42 P6 S21 
G1 X39.98 Y2.76 Z32.00 F3500 
M42 P4 S72 
M42 P5 S177 
M42 P6 S22 
G1 X40.08 Y3.57 Z32.00 F3500 
M42 P4 S73 
M42 P5 S180 
M42 P6 S23 
G1 X40.13 Y4.31 Z32.00 F3500 
M42 P4 S73 
M42 P5 S181 
M42 P6 S23 
G1 X40.16 Y5.80 Z32.00 F3500 
M42 P4 S73 
M42 P5 S179 
M42 P6 S23 
G1 X40.15 Y7.03 Z32.00 F3500 
M42 P4 S74 
M42 P5 S179 
M42 P6 S22 
G1 X40.15 Y7.59 Z32.00 F3500 
M42 P4 S73 
M42 P5 S174 
M42 P6 S22 
G1 X40.09 Y8.38 Z32.00 F3500 
M42 P4 S73 
M42 P5 S178 
M42 P6 S22 
G1 X39.99 Y9.49 Z32.00 F3500 
M42 P4 S75 
M42 P5 S183 
M42 P6 S23 
G1 X39.98 Y9.53 Z32.00 F3500 
M42 P4 S75 
M42 P5 S183 
M42 P6 S23 
G1 X39.98 Y9.55 Z32.00 F3500 
M42 P4 S75 
M42 P5 S183 
M42 P6 S23 
G1 X39.75 Y11.82 Z32.00 F3500 
M42 P4 S76 
M42 P5 S190 
M42 P6 S23 
G1 X39.64 Y12.62 Z32.00 F3500 
M42 P4 S77 
M42 P5 S187 
M42 P6 S23 
G1 X39.58 Y13.21 Z32.00 F3500 
M42 P4 S78 
M42 P5 S187 
M42 P6 S23 
G1 X39.48 Y14.15 Z32.00 F3500 
M42 P4 S78 
M42 P5 S190 
M42 P6 S24 
G1 X39.34 Y15.40 Z32.00 F3500 
M42 P4 S77 
M42 P5 S187 
M42 P6 S23 
G1 X39.17 Y16.81 Z32.00 F3500 
M42 P4 S77 
M42 P5 S189 
M42 P6 S23 
G1 X39.04 Y17.60 Z32.00 F3500 
M42 P4 S77 
M42 P5 S188 
M42 P6 S23 
G1 X38.82 Y18.70 Z32.00 F3500 
M42 P4 S76 
M42 P5 S183 
M42 P6 S23 
G1 X38.72 Y19.19 Z32.00 F3500 
M42 P4 S76 
M42 P5 S183 
M42 P6 S23 
G1 X38.61 Y19.58 Z32.00 F3500 
M42 P4 S76 
M42 P5 S182 
M42 P6 S23 
G1 X38.27 Y20.87 Z32.00 F3500 
M42 P4 S78 
M42 P5 S192 
M42 P6 S24 
G1 X38.11 Y21.34 Z32.00 F3500 
M42 P4 S78 
M42 P5 S193 
M42 P6 S24 
G1 X37.75 Y22.36 Z32.00 F3500 
M42 P4 S78 
M42 P5 S193 
M42 P6 S24 
G1 X37.41 Y23.18 Z32.00 F3500 
M42 P4 S78 
M42 P5 S194 
M42 P6 S24 
G1 X37.09 Y23.82 Z32.00 F3500 
M42 P4 S79 
M42 P5 S198 
M42 P6 S25 
G1 X36.87 Y24.24 Z32.00 F3500 
M42 P4 S79 
M42 P5 S198 
M42 P6 S25 
G1 X36.59 Y24.73 Z32.00 F3500 
M42 P4 S80 
M42 P5 S202 
M42 P6 S25 
G1 X36.23 Y25.28 Z32.00 F3500 
M42 P4 S79 
M42 P5 S198 
M42 P6 S25 
G1 X35.87 Y25.95 Z32.00 F3500 
M42 P4 S79 
M42 P5 S194 
M42 P6 S25 
G1 X35.43 Y26.65 Z32.00 F3500 
M42 P4 S79 
M42 P5 S194 
M42 P6 S25 
G1 X35.16 Y27.04 Z32.00 F3500 
M42 P4 S79 
M42 P5 S196 
M42 P6 S25 
G1 X34.45 Y27.93 Z32.00 F3500 
M42 P4 S80 
M42 P5 S201 
M42 P6 S26 
G1 X33.95 Y28.55 Z32.00 F3500 
M42 P4 S80 
M42 P5 S200 
M42 P6 S26 
G1 X33.70 Y28.85 Z32.00 F3500 
M42 P4 S80 
M42 P5 S199 
M42 P6 S26 
G1 X32.49 Y30.17 Z32.00 F3500 
M42 P4 S80 
M42 P5 S198 
M42 P6 S25 
G1 X31.91 Y30.81 Z32.00 F3500 
M42 P4 S80 
M42 P5 S200 
M42 P6 S26 
G1 X31.73 Y31.00 Z32.00 F3500 
M42 P4 S80 
M42 P5 S200 
M42 P6 S26 
G1 X31.33 Y31.39 Z32.00 F3500 
M42 P4 S80 
M42 P5 S200 
M42 P6 S26 
G1 X30.16 Y32.49 Z32.00 F3500 
M42 P4 S80 
M42 P5 S198 
M42 P6 S25 
G1 X29.74 Y32.89 Z32.00 F3500 
M42 P4 S80 
M42 P5 S199 
M42 P6 S26 
G1 X29.51 Y33.10 Z32.00 F3500 
M42 P4 S80 
M42 P5 S200 
M42 P6 S25 
G1 X28.24 Y34.21 Z32.00 F3500 
M42 P4 S78 
M42 P5 S200 
M42 P6 S26 
G1 X28.12 Y34.27 Z32.00 F3500 
M42 P4 S81 
M42 P5 S208 
M42 P6 S26 
G1 X27.95 Y34.39 Z32.00 F3500 
M42 P4 S81 
M42 P5 S207 
M42 P6 S27 
G1 X27.37 Y34.83 Z32.00 F3500 
M42 P4 S80 
M42 P5 S204 
M42 P6 S26 
G1 X27.20 Y34.94 Z32.00 F3500 
M42 P4 S80 
M42 P5 S206 
M42 P6 S26 
G1 X26.61 Y35.36 Z32.00 F3500 
M42 P4 S80 
M42 P5 S206 
M42 P6 S26 
G1 X26.30 Y35.54 Z32.00 F3500 
M42 P4 S80 
M42 P5 S204 
M42 P6 S26 
G1 X25.47 Y36.04 Z32.00 F3500 
M42 P4 S79 
M42 P5 S203 
M42 P6 S25 
G1 X25.40 Y36.08 Z32.00 F3500 
M42 P4 S79 
M42 P5 S202 
M42 P6 S25 
G1 X24.80 Y36.40 Z32.00 F3500 
M42 P4 S78 
M42 P5 S194 
M42 P6 S24 
G1 X24.50 Y36.53 Z32.00 F3500 
M42 P4 S78 
M42 P5 S193 
M42 P6 S24 
G1 X23.40 Y37.00 Z32.00 F3500 
M42 P4 S78 
M42 P5 S193 
M42 P6 S24 
G1 X23.19 Y37.09 Z32.00 F3500 
M42 P4 S77 
M42 P5 S191 
M42 P6 S24 
G1 X22.79 Y37.22 Z32.00 F3500 
M42 P4 S77 
M42 P5 S191 
M42 P6 S24 
G1 X21.90 Y37.53 Z32.00 F3500 
M42 P4 S77 
M42 P5 S189 
M42 P6 S24 
G1 X21.79 Y37.56 Z32.00 F3500 
M42 P4 S77 
M42 P5 S189 
M42 P6 S24 
G1 X21.79 Y37.56 Z32.00 F3500 
M42 P4 S77 
M42 P5 S189 
M42 P6 S24 
G1 X21.76 Y37.57 Z32.00 F3500 
M42 P4 S77 
M42 P5 S189 
M42 P6 S24 
G1 X21.68 Y37.59 Z32.00 F3500 
M42 P4 S77 
M42 P5 S189 
M42 P6 S24 
G1 X19.72 Y38.14 Z32.00 F3500 
M42 P4 S77 
M42 P5 S190 
M42 P6 S24 
G1 X18.96 Y38.32 Z32.00 F3500 
M42 P4 S77 
M42 P5 S189 
M42 P6 S24 
G1 X16.53 Y38.85 Z32.00 F3500 
M42 P4 S78 
M42 P5 S193 
M42 P6 S24 
G1 X15.92 Y39.01 Z32.00 F3500 
M42 P4 S78 
M42 P5 S193 
M42 P6 S24 
G1 X15.03 Y39.28 Z32.00 F3500 
M42 P4 S78 
M42 P5 S192 
M42 P6 S24 
G1 X14.73 Y39.35 Z32.00 F3500 
M42 P4 S77 
M42 P5 S190 
M42 P6 S24 
G1 X13.40 Y39.76 Z32.00 F3500 
M42 P4 S77 
M42 P5 S190 
M42 P6 S23 
G1 X13.22 Y39.80 Z32.00 F3500 
M42 P4 S77 
M42 P5 S190 
M42 P6 S23 
G1 X13.13 Y39.82 Z32.00 F3500 
M42 P4 S77 
M42 P5 S189 
M42 P6 S23 
G1 X12.15 Y40.10 Z32.00 F3500 
M42 P4 S77 
M42 P5 S189 
M42 P6 S23 
G1 X11.37 Y40.30 Z32.00 F3500 
M42 P4 S77 
M42 P5 S189 
M42 P6 S23 
G1 X10.37 Y40.52 Z32.00 F3500 
M42 P4 S76 
M42 P5 S187 
M42 P6 S23 
G1 X10.32 Y40.52 Z32.00 F3500 
M42 P4 S76 
M42 P5 S187 
M42 P6 S23 
G1 X10.04 Y40.56 Z32.00 F3500 
M42 P4 S76 
M42 P5 S187 
M42 P6 S23 
G1 X8.18 Y40.82 Z32.00 F3500 
M42 P4 S75 
M42 P5 S183 
M42 P6 S23 
G1 X7.85 Y40.85 Z32.00 F3500 
M42 P4 S76 
M42 P5 S184 
M42 P6 S22 
G1 X7.06 Y40.88 Z32.00 F3500 
M42 P4 S75 
M42 P5 S181 
M42 P6 S22 
G1 X6.59 Y40.89 Z32.00 F3500 
M42 P4 S75 
M42 P5 S181 
M42 P6 S22 
G1 X6.27 Y40.90 Z32.00 F3500 
M42 P4 S75 
M42 P5 S182 
M42 P6 S22 
G1 X5.42 Y40.87 Z32.00 F3500 
M42 P4 S75 
M42 P5 S184 
M42 P6 S23 
G1 X4.45 Y40.82 Z32.00 F3500 
M42 P4 S76 
M42 P5 S188 
M42 P6 S23 
G1 X3.56 Y40.72 Z32.00 F3500 
M42 P4 S76 
M42 P5 S188 
M42 P6 S23 
G1 X2.90 Y40.62 Z32.00 F3500 
M42 P4 S76 
M42 P5 S187 
M42 P6 S23 
G1 X2.22 Y40.52 Z32.00 F3500 
M42 P4 S76 
M42 P5 S187 
M42 P6 S23 
G1 X1.99 Y40.48 Z32.00 F3500 
M42 P4 S76 
M42 P5 S188 
M42 P6 S23 
G1 X1.67 Y40.42 Z32.00 F3500 
M42 P4 S76 
M42 P5 S187 
M42 P6 S23 
G1 X0.93 Y40.25 Z32.00 F3500 
M42 P4 S75 
M42 P5 S183 
M42 P6 S23 
G1 X0.43 Y40.13 Z32.00 F3500 
M42 P4 S75 
M42 P5 S180 
M42 P6 S23 
G1 X0.20 Y40.06 Z32.00 F3500 
M42 P4 S75 
M42 P5 S181 
M42 P6 S23 
G1 X-0.12 Y39.98 Z32.00 F3500 
M42 P4 S75 
M42 P5 S180 
M42 P6 S23 
G1 X-0.97 Y39.71 Z32.00 F3500 
M42 P4 S75 
M42 P5 S182 
M42 P6 S22 
G1 X-1.48 Y39.53 Z32.00 F3500 
M42 P4 S75 
M42 P5 S181 
M42 P6 S22 
G1 X-2.64 Y39.10 Z32.00 F3500 
M42 P4 S75 
M42 P5 S181 
M42 P6 S23 
G1 X-3.10 Y38.91 Z32.00 F3500 
M42 P4 S74 
M42 P5 S179 
M42 P6 S22 
G1 X-4.03 Y38.47 Z32.00 F3500 
M42 P4 S73 
M42 P5 S174 
M42 P6 S22 
G1 X-4.78 Y38.12 Z32.00 F3500 
M42 P4 S73 
M42 P5 S171 
M42 P6 S22 
G1 X-5.16 Y37.92 Z32.00 F3500 
M42 P4 S72 
M42 P5 S171 
M42 P6 S22 
G1 X-6.40 Y37.22 Z32.00 F3500 
M42 P4 S72 
M42 P5 S176 
M42 P6 S22 
G1 X-6.50 Y37.15 Z32.00 F3500 
M42 P4 S71 
M42 P5 S176 
M42 P6 S22 
G1 X-6.84 Y36.94 Z32.00 F3500 
M42 P4 S71 
M42 P5 S174 
M42 P6 S22 
G1 X-8.56 Y35.82 Z32.00 F3500 
M42 P4 S69 
M42 P5 S162 
M42 P6 S21 
G1 X-8.93 Y35.55 Z32.00 F3500 
M42 P4 S69 
M42 P5 S158 
M42 P6 S20 
G1 X-9.30 Y35.28 Z32.00 F3500 
M42 P4 S69 
M42 P5 S158 
M42 P6 S20 
G1 X-9.82 Y34.84 Z32.00 F3500 
M42 P4 S68 
M42 P5 S156 
M42 P6 S20 
G1 X-10.66 Y34.13 Z32.00 F3500 
M42 P4 S67 
M42 P5 S152 
M42 P6 S19 
G1 X-10.95 Y33.84 Z32.00 F3500 
M42 P4 S66 
M42 P5 S153 
M42 P6 S19 
G1 X-12.78 Y32.09 Z32.00 F3500 
M42 P4 S66 
M42 P5 S153 
M42 P6 S20 
G1 X-13.51 Y31.37 Z32.00 F3500 
M42 P4 S66 
M42 P5 S150 
M42 P6 S20 
G1 X-14.12 Y30.74 Z32.00 F3500 
M42 P4 S65 
M42 P5 S148 
M42 P6 S19 
G1 X-15.67 Y29.07 Z32.00 F3500 
M42 P4 S63 
M42 P5 S143 
M42 P6 S18 
G1 X-16.39 Y28.32 Z32.00 F3500 
M42 P4 S62 
M42 P5 S141 
M42 P6 S18 
G1 X-16.58 Y28.13 Z32.00 F3500 
M42 P4 S62 
M42 P5 S141 
M42 P6 S18 
G1 X-18.10 Y26.52 Z32.00 F3500 
M42 P4 S61 
M42 P5 S137 
M42 P6 S17 
G1 X-20.89 Y23.52 Z32.00 F3500 
M42 P4 S61 
M42 P5 S139 
M42 P6 S17 
G1 X-21.36 Y23.00 Z32.00 F3500 
M42 P4 S61 
M42 P5 S139 
M42 P6 S17 
G1 X-21.56 Y22.80 Z32.00 F3500 
M42 P4 S61 
M42 P5 S139 
M42 P6 S17 
G1 X-23.67 Y20.58 Z32.00 F3500 
M42 P4 S61 
M42 P5 S138 
M42 P6 S18 
G1 X-24.23 Y19.97 Z32.00 F3500 
M42 P4 S61 
M42 P5 S138 
M42 P6 S18 
G1 X-25.63 Y18.63 Z32.00 F3500 
M42 P4 S60 
M42 P5 S132 
M42 P6 S17 
G1 X-26.18 Y18.06 Z32.00 F3500 
M42 P4 S60 
M42 P5 S131 
M42 P6 S16 
G1 X-26.41 Y17.85 Z32.00 F3500 
M42 P4 S61 
M42 P5 S134 
M42 P6 S17 
G1 X-26.46 Y17.74 Z32.00 F3500 
M42 P4 S60 
M42 P5 S132 
M42 P6 S16 
M42 P4 S0 
M42 P5 S0 
M42 P6 S0 
G1 X19.90 Y-27.01 Z34.00 F3500 
M42 P4 S60 
M42 P5 S130 
M42 P6 S16 
G1 X20.03 Y-27.00 Z34.00 F3500 
M42 P4 S59 
M42 P5 S130 
M42 P6 S16 
G1 X20.45 Y-26.88 Z34.00 F3500 
M42 P4 S59 
M42 P5 S128 
M42 P6 S16 
G1 X20.61 Y-26.86 Z34.00 F3500 
M42 P4 S58 
M42 P5 S128 
M42 P6 S16 
G1 X20.79 Y-26.76 Z34.00 F3500 
M42 P4 S59 
M42 P5 S128 
M42 P6 S16 
G1 X21.10 Y-26.57 Z34.00 F3500 
M42 P4 S60 
M42 P5 S134 
M42 P6 S17 
G1 X21.92 Y-25.93 Z34.00 F3500 
M42 P4 S61 
M42 P5 S138 
M42 P6 S18 
G1 X22.20 Y-25.71 Z34.00 F3500 
M42 P4 S62 
M42 P5 S139 
M42 P6 S18 
G1 X22.52 Y-25.43 Z34.00 F3500 
M42 P4 S61 
M42 P5 S137 
M42 P6 S18 
G1 X22.78 Y-25.20 Z34.00 F3500 
M42 P4 S61 
M42 P5 S137 
M42 P6 S18 
G1 X24.81 Y-23.17 Z34.00 F3500 
M42 P4 S63 
M42 P5 S142 
M42 P6 S18 
G1 X25.09 Y-22.89 Z34.00 F3500 
M42 P4 S63 
M42 P5 S143 
M42 P6 S18 
G1 X25.19 Y-22.79 Z34.00 F3500 
M42 P4 S63 
M42 P5 S143 
M42 P6 S18 
G1 X26.77 Y-21.05 Z34.00 F3500 
M42 P4 S61 
M42 P5 S150 
M42 P6 S19 
G1 X27.47 Y-20.26 Z34.00 F3500 
M42 P4 S61 
M42 P5 S144 
M42 P6 S18 
G1 X28.62 Y-18.89 Z34.00 F3500 
M42 P4 S62 
M42 P5 S142 
M42 P6 S18 
G1 X30.58 Y-16.67 Z34.00 F3500 
M42 P4 S61 
M42 P5 S139 
M42 P6 S17 
G1 X31.12 Y-15.99 Z34.00 F3500 
M42 P4 S60 
M42 P5 S136 
M42 P6 S17 
G1 X31.41 Y-15.63 Z34.00 F3500 
M42 P4 S61 
M42 P5 S139 
M42 P6 S17 
G1 X33.67 Y-13.06 Z34.00 F3500 
M42 P4 S62 
M42 P5 S144 
M42 P6 S18 
G1 X35.36 Y-11.18 Z34.00 F3500 
M42 P4 S66 
M42 P5 S148 
M42 P6 S18 
G1 X35.44 Y-11.09 Z34.00 F3500 
M42 P4 S66 
M42 P5 S148 
M42 P6 S18 
G1 X36.42 Y-9.87 Z34.00 F3500 
M42 P4 S67 
M42 P5 S149 
M42 P6 S19 
G1 X36.67 Y-9.54 Z34.00 F3500 
M42 P4 S67 
M42 P5 S150 
M42 P6 S19 
G1 X37.04 Y-9.02 Z34.00 F3500 
M42 P4 S66 
M42 P5 S149 
M42 P6 S18 
G1 X37.73 Y-8.02 Z34.00 F3500 
M42 P4 S66 
M42 P5 S148 
M42 P6 S18 
G1 X38.08 Y-7.50 Z34.00 F3500 
M42 P4 S67 
M42 P5 S150 
M42 P6 S19 
G1 X38.24 Y-7.26 Z34.00 F3500 
M42 P4 S66 
M42 P5 S149 
M42 P6 S18 
G1 X38.40 Y-6.96 Z34.00 F3500 
M42 P4 S67 
M42 P5 S150 
M42 P6 S19 
G1 X38.86 Y-6.11 Z34.00 F3500 
M42 P4 S67 
M42 P5 S152 
M42 P6 S19 
G1 X39.27 Y-5.35 Z34.00 F3500 
M42 P4 S69 
M42 P5 S157 
M42 P6 S19 
G1 X39.64 Y-4.61 Z34.00 F3500 
M42 P4 S70 
M42 P5 S162 
M42 P6 S20 
G1 X39.76 Y-4.32 Z34.00 F3500 
M42 P4 S71 
M42 P5 S164 
M42 P6 S21 
G1 X39.94 Y-3.92 Z34.00 F3500 
M42 P4 S71 
M42 P5 S164 
M42 P6 S21 
G1 X40.15 Y-3.37 Z34.00 F3500 
M42 P4 S71 
M42 P5 S164 
M42 P6 S21 
G1 X40.55 Y-2.21 Z34.00 F3500 
M42 P4 S72 
M42 P5 S171 
M42 P6 S21 
G1 X40.71 Y-1.67 Z34.00 F3500 
M42 P4 S74 
M42 P5 S171 
M42 P6 S22 
G1 X40.74 Y-1.55 Z34.00 F3500 
M42 P4 S73 
M42 P5 S171 
M42 P6 S22 
G1 X40.79 Y-1.31 Z34.00 F3500 
M42 P4 S74 
M42 P5 S171 
M42 P6 S22 
G1 X40.90 Y-0.86 Z34.00 F3500 
M42 P4 S74 
M42 P5 S173 
M42 P6 S22 
G1 X41.06 Y-0.03 Z34.00 F3500 
M42 P4 S74 
M42 P5 S177 
M42 P6 S22 
G1 X41.11 Y0.38 Z34.00 F3500 
M42 P4 S75 
M42 P5 S178 
M42 P6 S22 
G1 X41.31 Y1.77 Z34.00 F3500 
M42 P4 S73 
M42 P5 S178 
M42 P6 S22 
G1 X41.43 Y3.60 Z34.00 F3500 
M42 P4 S74 
M42 P5 S178 
M42 P6 S22 
G1 X41.48 Y4.73 Z34.00 F3500 
M42 P4 S74 
M42 P5 S176 
M42 P6 S22 
G1 X41.49 Y5.51 Z34.00 F3500 
M42 P4 S74 
M42 P5 S178 
M42 P6 S22 
G1 X41.42 Y6.58 Z34.00 F3500 
M42 P4 S73 
M42 P5 S179 
M42 P6 S22 
G1 X41.41 Y6.72 Z34.00 F3500 
M42 P4 S73 
M42 P5 S180 
M42 P6 S22 
G1 X41.41 Y6.75 Z34.00 F3500 
M42 P4 S73 
M42 P5 S180 
M42 P6 S22 
G1 X41.40 Y6.83 Z34.00 F3500 
M42 P4 S73 
M42 P5 S180 
M42 P6 S22 
G1 X41.23 Y7.92 Z34.00 F3500 
M42 P4 S75 
M42 P5 S184 
M42 P6 S23 
G1 X41.12 Y8.57 Z34.00 F3500 
M42 P4 S75 
M42 P5 S184 
M42 P6 S23 
G1 X41.02 Y9.18 Z34.00 F3500 
M42 P4 S76 
M42 P5 S189 
M42 P6 S23 
G1 X40.57 Y11.09 Z34.00 F3500 
M42 P4 S79 
M42 P5 S199 
M42 P6 S25 
G1 X40.56 Y11.12 Z34.00 F3500 
M42 P4 S79 
M42 P5 S199 
M42 P6 S25 
G1 X40.53 Y11.25 Z34.00 F3500 
M42 P4 S79 
M42 P5 S199 
M42 P6 S25 
G1 X40.10 Y13.21 Z34.00 F3500 
M42 P4 S78 
M42 P5 S193 
M42 P6 S24 
G1 X39.82 Y14.91 Z34.00 F3500 
M42 P4 S78 
M42 P5 S193 
M42 P6 S24 
G1 X39.65 Y15.76 Z34.00 F3500 
M42 P4 S79 
M42 P5 S194 
M42 P6 S24 
G1 X39.39 Y17.15 Z34.00 F3500 
M42 P4 S78 
M42 P5 S193 
M42 P6 S24 
G1 X39.39 Y17.19 Z34.00 F3500 
M42 P4 S78 
M42 P5 S193 
M42 P6 S24 
G1 X39.01 Y18.89 Z34.00 F3500 
M42 P4 S77 
M42 P5 S188 
M42 P6 S23 
G1 X38.75 Y19.91 Z34.00 F3500 
M42 P4 S77 
M42 P5 S188 
M42 P6 S23 
G1 X38.59 Y20.49 Z34.00 F3500 
M42 P4 S76 
M42 P5 S186 
M42 P6 S23 
G1 X38.51 Y20.79 Z34.00 F3500 
M42 P4 S77 
M42 P5 S188 
M42 P6 S24 
G1 X38.20 Y21.65 Z34.00 F3500 
M42 P4 S77 
M42 P5 S191 
M42 P6 S24 
G1 X38.08 Y22.07 Z34.00 F3500 
M42 P4 S77 
M42 P5 S192 
M42 P6 S24 
G1 X37.99 Y22.35 Z34.00 F3500 
M42 P4 S77 
M42 P5 S192 
M42 P6 S24 
G1 X37.76 Y22.85 Z34.00 F3500 
M42 P4 S77 
M42 P5 S194 
M42 P6 S24 
G1 X37.54 Y23.36 Z34.00 F3500 
M42 P4 S77 
M42 P5 S196 
M42 P6 S25 
G1 X37.39 Y23.61 Z34.00 F3500 
M42 P4 S77 
M42 P5 S194 
M42 P6 S25 
G1 X37.08 Y24.18 Z34.00 F3500 
M42 P4 S78 
M42 P5 S191 
M42 P6 S24 
G1 X36.67 Y24.86 Z34.00 F3500 
M42 P4 S78 
M42 P5 S191 
M42 P6 S24 
G1 X36.04 Y25.81 Z34.00 F3500 
M42 P4 S76 
M42 P5 S188 
M42 P6 S23 
G1 X35.95 Y25.94 Z34.00 F3500 
M42 P4 S76 
M42 P5 S188 
M42 P6 S23 
G1 X35.03 Y27.18 Z34.00 F3500 
M42 P4 S76 
M42 P5 S187 
M42 P6 S24 
G1 X34.93 Y27.32 Z34.00 F3500 
M42 P4 S76 
M42 P5 S187 
M42 P6 S24 
G1 X34.74 Y27.53 Z34.00 F3500 
M42 P4 S77 
M42 P5 S187 
M42 P6 S24 
G1 X34.14 Y28.26 Z34.00 F3500 
M42 P4 S77 
M42 P5 S189 
M42 P6 S24 
G1 X33.24 Y29.24 Z34.00 F3500 
M42 P4 S77 
M42 P5 S187 
M42 P6 S24 
G1 X30.76 Y31.87 Z34.00 F3500 
M42 P4 S76 
M42 P5 S187 
M42 P6 S24 
G1 X30.30 Y32.38 Z34.00 F3500 
M42 P4 S76 
M42 P5 S186 
M42 P6 S24 
G1 X29.73 Y32.92 Z34.00 F3500 
M42 P4 S76 
M42 P5 S189 
M42 P6 S24 
G1 X28.53 Y34.12 Z34.00 F3500 
M42 P4 S76 
M42 P5 S191 
M42 P6 S24 
G1 X27.75 Y34.77 Z34.00 F3500 
M42 P4 S77 
M42 P5 S191 
M42 P6 S24 
G1 X27.70 Y34.82 Z34.00 F3500 
M42 P4 S77 
M42 P5 S191 
M42 P6 S24 
G1 X27.63 Y34.88 Z34.00 F3500 
M42 P4 S77 
M42 P5 S191 
M42 P6 S24 
G1 X26.46 Y35.70 Z34.00 F3500 
M42 P4 S75 
M42 P5 S189 
M42 P6 S25 
G1 X25.88 Y36.12 Z34.00 F3500 
M42 P4 S75 
M42 P5 S190 
M42 P6 S24 
G1 X25.69 Y36.24 Z34.00 F3500 
M42 P4 S76 
M42 P5 S191 
M42 P6 S24 
G1 X25.47 Y36.37 Z34.00 F3500 
M42 P4 S77 
M42 P5 S191 
M42 P6 S24 
G1 X24.49 Y36.84 Z34.00 F3500 
M42 P4 S76 
M42 P5 S188 
M42 P6 S23 
G1 X24.34 Y36.92 Z34.00 F3500 
M42 P4 S76 
M42 P5 S187 
M42 P6 S23 
G1 X24.29 Y36.95 Z34.00 F3500 
M42 P4 S76 
M42 P5 S187 
M42 P6 S23 
G1 X24.23 Y36.97 Z34.00 F3500 
M42 P4 S76 
M42 P5 S186 
M42 P6 S23 
G1 X24.01 Y37.10 Z34.00 F3500 
M42 P4 S76 
M42 P5 S184 
M42 P6 S23 
G1 X22.75 Y37.57 Z34.00 F3500 
M42 P4 S75 
M42 P5 S182 
M42 P6 S23 
G1 X22.68 Y37.59 Z34.00 F3500 
M42 P4 S76 
M42 P5 S183 
M42 P6 S23 
G1 X22.34 Y37.72 Z34.00 F3500 
M42 P4 S76 
M42 P5 S186 
M42 P6 S23 
G1 X20.58 Y38.25 Z34.00 F3500 
M42 P4 S77 
M42 P5 S190 
M42 P6 S24 
G1 X18.78 Y38.77 Z34.00 F3500 
M42 P4 S77 
M42 P5 S190 
M42 P6 S24 
G1 X18.09 Y39.03 Z34.00 F3500 
M42 P4 S77 
M42 P5 S187 
M42 P6 S23 
G1 X17.17 Y39.31 Z34.00 F3500 
M42 P4 S77 
M42 P5 S189 
M42 P6 S23 
G1 X16.35 Y39.59 Z34.00 F3500 
M42 P4 S78 
M42 P5 S192 
M42 P6 S24 
G1 X14.49 Y40.23 Z34.00 F3500 
M42 P4 S78 
M42 P5 S193 
M42 P6 S24 
G1 X14.11 Y40.38 Z34.00 F3500 
M42 P4 S78 
M42 P5 S196 
M42 P6 S24 
G1 X13.65 Y40.60 Z34.00 F3500 
M42 P4 S78 
M42 P5 S192 
M42 P6 S24 
G1 X13.57 Y40.64 Z34.00 F3500 
M42 P4 S78 
M42 P5 S193 
M42 P6 S24 
G1 X13.34 Y40.73 Z34.00 F3500 
M42 P4 S78 
M42 P5 S192 
M42 P6 S24 
G1 X12.23 Y41.17 Z34.00 F3500 
M42 P4 S77 
M42 P5 S189 
M42 P6 S23 
G1 X12.18 Y41.17 Z34.00 F3500 
M42 P4 S77 
M42 P5 S188 
M42 P6 S23 
G1 X10.42 Y41.68 Z34.00 F3500 
M42 P4 S78 
M42 P5 S189 
M42 P6 S23 
G1 X9.86 Y41.85 Z34.00 F3500 
M42 P4 S78 
M42 P5 S191 
M42 P6 S24 
G1 X9.21 Y41.99 Z34.00 F3500 
M42 P4 S77 
M42 P5 S191 
M42 P6 S23 
G1 X9.00 Y42.03 Z34.00 F3500 
M42 P4 S77 
M42 P5 S191 
M42 P6 S23 
G1 X7.79 Y42.21 Z34.00 F3500 
M42 P4 S77 
M42 P5 S186 
M42 P6 S23 
G1 X7.75 Y42.22 Z34.00 F3500 
M42 P4 S77 
M42 P5 S186 
M42 P6 S23 
G1 X7.71 Y42.22 Z34.00 F3500 
M42 P4 S77 
M42 P5 S186 
M42 P6 S23 
G1 X5.79 Y42.30 Z34.00 F3500 
M42 P4 S78 
M42 P5 S193 
M42 P6 S24 
G1 X5.52 Y42.30 Z34.00 F3500 
M42 P4 S78 
M42 P5 S192 
M42 P6 S24 
G1 X5.29 Y42.30 Z34.00 F3500 
M42 P4 S78 
M42 P5 S193 
M42 P6 S24 
G1 X3.92 Y42.22 Z34.00 F3500 
M42 P4 S79 
M42 P5 S194 
M42 P6 S24 
G1 X2.83 Y42.14 Z34.00 F3500 
M42 P4 S78 
M42 P5 S190 
M42 P6 S23 
G1 X2.51 Y42.07 Z34.00 F3500 
M42 P4 S78 
M42 P5 S196 
M42 P6 S24 
G1 X1.70 Y41.96 Z34.00 F3500 
M42 P4 S78 
M42 P5 S196 
M42 P6 S24 
G1 X-0.09 Y41.59 Z34.00 F3500 
M42 P4 S78 
M42 P5 S187 
M42 P6 S23 
G1 X-0.18 Y41.57 Z34.00 F3500 
M42 P4 S78 
M42 P5 S187 
M42 P6 S23 
G1 X-0.63 Y41.45 Z34.00 F3500 
M42 P4 S78 
M42 P5 S189 
M42 P6 S24 
G1 X-1.28 Y41.26 Z34.00 F3500 
M42 P4 S79 
M42 P5 S193 
M42 P6 S25 
G1 X-1.44 Y41.22 Z34.00 F3500 
M42 P4 S79 
M42 P5 S193 
M42 P6 S25 
G1 X-2.08 Y41.01 Z34.00 F3500 
M42 P4 S78 
M42 P5 S192 
M42 P6 S24 
G1 X-2.67 Y40.81 Z34.00 F3500 
M42 P4 S78 
M42 P5 S192 
M42 P6 S24 
G1 X-2.76 Y40.78 Z34.00 F3500 
M42 P4 S78 
M42 P5 S192 
M42 P6 S24 
G1 X-2.91 Y40.72 Z34.00 F3500 
M42 P4 S78 
M42 P5 S191 
M42 P6 S24 
G1 X-4.23 Y40.20 Z34.00 F3500 
M42 P4 S76 
M42 P5 S184 
M42 P6 S23 
G1 X-5.24 Y39.73 Z34.00 F3500 
M42 P4 S75 
M42 P5 S181 
M42 P6 S22 
G1 X-6.09 Y39.34 Z34.00 F3500 
M42 P4 S76 
M42 P5 S180 
M42 P6 S22 
G1 X-6.39 Y39.20 Z34.00 F3500 
M42 P4 S76 
M42 P5 S180 
M42 P6 S22 
G1 X-6.47 Y39.16 Z34.00 F3500 
M42 P4 S76 
M42 P5 S180 
M42 P6 S22 
G1 X-6.64 Y39.06 Z34.00 F3500 
M42 P4 S76 
M42 P5 S179 
M42 P6 S22 
G1 X-7.56 Y38.53 Z34.00 F3500 
M42 P4 S74 
M42 P5 S176 
M42 P6 S22 
G1 X-8.08 Y38.23 Z34.00 F3500 
M42 P4 S72 
M42 P5 S172 
M42 P6 S22 
G1 X-8.31 Y38.09 Z34.00 F3500 
M42 P4 S72 
M42 P5 S170 
M42 P6 S22 
G1 X-8.52 Y37.95 Z34.00 F3500 
M42 P4 S72 
M42 P5 S170 
M42 P6 S22 
G1 X-9.44 Y37.29 Z34.00 F3500 
M42 P4 S71 
M42 P5 S168 
M42 P6 S21 
G1 X-10.46 Y36.52 Z34.00 F3500 
M42 P4 S71 
M42 P5 S167 
M42 P6 S21 
G1 X-11.13 Y35.99 Z34.00 F3500 
M42 P4 S71 
M42 P5 S164 
M42 P6 S21 
G1 X-11.37 Y35.79 Z34.00 F3500 
M42 P4 S71 
M42 P5 S166 
M42 P6 S21 
G1 X-12.33 Y34.96 Z34.00 F3500 
M42 P4 S67 
M42 P5 S159 
M42 P6 S20 
G1 X-13.17 Y34.20 Z34.00 F3500 
M42 P4 S67 
M42 P5 S159 
M42 P6 S20 
G1 X-13.51 Y33.89 Z34.00 F3500 
M42 P4 S67 
M42 P5 S158 
M42 P6 S20 
G1 X-14.34 Y33.07 Z34.00 F3500 
M42 P4 S65 
M42 P5 S154 
M42 P6 S19 
G1 X-15.32 Y32.06 Z34.00 F3500 
M42 P4 S64 
M42 P5 S149 
M42 P6 S19 
G1 X-16.05 Y31.31 Z34.00 F3500 
M42 P4 S64 
M42 P5 S149 
M42 P6 S18 
G1 X-17.33 Y29.90 Z34.00 F3500 
M42 P4 S63 
M42 P5 S146 
M42 P6 S18 
G1 X-19.22 Y27.76 Z34.00 F3500 
M42 P4 S61 
M42 P5 S138 
M42 P6 S17 
G1 X-20.09 Y26.81 Z34.00 F3500 
M42 P4 S62 
M42 P5 S138 
M42 P6 S17 
G1 X-21.40 Y25.30 Z34.00 F3500 
M42 P4 S61 
M42 P5 S137 
M42 P6 S17 
G1 X-22.17 Y24.49 Z34.00 F3500 
M42 P4 S61 
M42 P5 S137 
M42 P6 S17 
G1 X-23.99 Y22.45 Z34.00 F3500 
M42 P4 S62 
M42 P5 S139 
M42 P6 S18 
G1 X-24.49 Y21.93 Z34.00 F3500 
M42 P4 S62 
M42 P5 S139 
M42 P6 S18 
G1 X-25.22 Y21.12 Z34.00 F3500 
M42 P4 S62 
M42 P5 S138 
M42 P6 S17 
G1 X-25.83 Y20.44 Z34.00 F3500 
M42 P4 S61 
M42 P5 S137 
M42 P6 S17 
G1 X-26.33 Y19.86 Z34.00 F3500 
M42 P4 S61 
M42 P5 S138 
M42 P6 S17 
G1 X-26.66 Y19.45 Z34.00 F3500 
M42 P4 S61 
M42 P5 S138 
M42 P6 S17 
G1 X-27.37 Y18.65 Z34.00 F3500 
M42 P4 S61 
M42 P5 S138 
M42 P6 S17 
G1 X-28.18 Y17.68 Z34.00 F3500 
M42 P4 S61 
M42 P5 S136 
M42 P6 S17 
G1 X-28.45 Y17.35 Z34.00 F3500 
M42 P4 S61 
M42 P5 S134 
M42 P6 S17 
G1 X-28.51 Y17.28 Z34.00 F3500 
M42 P4 S61 
M42 P5 S134 
M42 P6 S17 
G1 X-28.53 Y17.23 Z34.00 F3500 
M42 P4 S61 
M42 P5 S134 
M42 P6 S17 
G1 X-28.62 Y17.02 Z34.00 F3500 
M42 P4 S60 
M42 P5 S136 
M42 P6 S17 
G1 X-28.63 Y16.96 Z34.00 F3500 
M42 P4 S60 
M42 P5 S136 
M42 P6 S16 
G1 X-28.63 Y16.95 Z34.00 F3500 
M42 P4 S60 
M42 P5 S134 
M42 P6 S16 
M42 P4 S0 
M42 P5 S0 
M42 P6 S0 
G1 X19.38 Y-28.65 Z36.00 F3500 
M42 P4 S63 
M42 P5 S139 
M42 P6 S18 
G1 X19.68 Y-28.64 Z36.00 F3500 
M42 P4 S62 
M42 P5 S137 
M42 P6 S17 
G1 X20.09 Y-28.55 Z36.00 F3500 
M42 P4 S62 
M42 P5 S140 
M42 P6 S17 
G1 X20.21 Y-28.53 Z36.00 F3500 
M42 P4 S62 
M42 P5 S142 
M42 P6 S17 
G1 X20.28 Y-28.50 Z36.00 F3500 
M42 P4 S62 
M42 P5 S142 
M42 P6 S18 
G1 X20.68 Y-28.22 Z36.00 F3500 
M42 P4 S63 
M42 P5 S143 
M42 P6 S18 
G1 X21.13 Y-27.94 Z36.00 F3500 
M42 P4 S64 
M42 P5 S141 
M42 P6 S18 
G1 X21.41 Y-27.71 Z36.00 F3500 
M42 P4 S62 
M42 P5 S140 
M42 P6 S18 
G1 X21.60 Y-27.54 Z36.00 F3500 
M42 P4 S62 
M42 P5 S140 
M42 P6 S18 
G1 X21.69 Y-27.47 Z36.00 F3500 
M42 P4 S62 
M42 P5 S140 
M42 P6 S18 
G1 X22.49 Y-26.71 Z36.00 F3500 
M42 P4 S63 
M42 P5 S142 
M42 P6 S19 
G1 X24.05 Y-25.25 Z36.00 F3500 
M42 P4 S61 
M42 P5 S144 
M42 P6 S18 
G1 X24.34 Y-24.97 Z36.00 F3500 
M42 P4 S61 
M42 P5 S144 
M42 P6 S18 
G1 X26.02 Y-23.30 Z36.00 F3500 
M42 P4 S63 
M42 P5 S144 
M42 P6 S18 
G1 X26.13 Y-23.14 Z36.00 F3500 
M42 P4 S63 
M42 P5 S144 
M42 P6 S19 
G1 X27.89 Y-21.41 Z36.00 F3500 
M42 P4 S65 
M42 P5 S148 
M42 P6 S19 
G1 X28.80 Y-20.44 Z36.00 F3500 
M42 P4 S66 
M42 P5 S152 
M42 P6 S20 
G1 X28.99 Y-20.24 Z36.00 F3500 
M42 P4 S65 
M42 P5 S153 
M42 P6 S20 
G1 X29.45 Y-19.73 Z36.00 F3500 
M42 P4 S65 
M42 P5 S151 
M42 P6 S20 
G1 X31.58 Y-17.47 Z36.00 F3500 
M42 P4 S62 
M42 P5 S147 
M42 P6 S18 
G1 X32.57 Y-16.41 Z36.00 F3500 
M42 P4 S63 
M42 P5 S149 
M42 P6 S18 
G1 X34.70 Y-14.06 Z36.00 F3500 
M42 P4 S64 
M42 P5 S148 
M42 P6 S18 
G1 X36.38 Y-12.19 Z36.00 F3500 
M42 P4 S65 
M42 P5 S152 
M42 P6 S19 
G1 X36.92 Y-11.59 Z36.00 F3500 
M42 P4 S66 
M42 P5 S151 
M42 P6 S19 
G1 X37.00 Y-11.49 Z36.00 F3500 
M42 P4 S66 
M42 P5 S151 
M42 P6 S19 
G1 X37.62 Y-10.72 Z36.00 F3500 
M42 P4 S66 
M42 P5 S152 
M42 P6 S19 
G1 X37.94 Y-10.31 Z36.00 F3500 
M42 P4 S65 
M42 P5 S152 
M42 P6 S19 
G1 X38.01 Y-10.23 Z36.00 F3500 
M42 P4 S65 
M42 P5 S152 
M42 P6 S19 
G1 X38.02 Y-10.21 Z36.00 F3500 
M42 P4 S65 
M42 P5 S152 
M42 P6 S19 
G1 X38.07 Y-10.15 Z36.00 F3500 
M42 P4 S65 
M42 P5 S152 
M42 P6 S19 
G1 X38.74 Y-9.18 Z36.00 F3500 
M42 P4 S67 
M42 P5 S153 
M42 P6 S19 
G1 X38.80 Y-9.09 Z36.00 F3500 
M42 P4 S67 
M42 P5 S153 
M42 P6 S19 
G1 X39.78 Y-7.43 Z36.00 F3500 
M42 P4 S69 
M42 P5 S158 
M42 P6 S20 
G1 X39.97 Y-7.11 Z36.00 F3500 
M42 P4 S70 
M42 P5 S160 
M42 P6 S20 
G1 X40.18 Y-6.67 Z36.00 F3500 
M42 P4 S72 
M42 P5 S162 
M42 P6 S20 
G1 X41.00 Y-4.95 Z36.00 F3500 
M42 P4 S73 
M42 P5 S170 
M42 P6 S22 
G1 X41.05 Y-4.88 Z36.00 F3500 
M42 P4 S72 
M42 P5 S170 
M42 P6 S22 
G1 X41.12 Y-4.69 Z36.00 F3500 
M42 P4 S73 
M42 P5 S172 
M42 P6 S22 
G1 X41.34 Y-4.07 Z36.00 F3500 
M42 P4 S74 
M42 P5 S173 
M42 P6 S22 
G1 X41.55 Y-3.45 Z36.00 F3500 
M42 P4 S75 
M42 P5 S174 
M42 P6 S22 
G1 X41.66 Y-3.07 Z36.00 F3500 
M42 P4 S75 
M42 P5 S176 
M42 P6 S22 
G1 X41.81 Y-2.51 Z36.00 F3500 
M42 P4 S74 
M42 P5 S174 
M42 P6 S22 
G1 X42.14 Y-1.05 Z36.00 F3500 
M42 P4 S75 
M42 P5 S178 
M42 P6 S22 
G1 X42.16 Y-0.96 Z36.00 F3500 
M42 P4 S75 
M42 P5 S178 
M42 P6 S22 
G1 X42.36 Y0.28 Z36.00 F3500 
M42 P4 S75 
M42 P5 S177 
M42 P6 S22 
G1 X42.42 Y0.67 Z36.00 F3500 
M42 P4 S74 
M42 P5 S176 
M42 P6 S22 
G1 X42.49 Y1.28 Z36.00 F3500 
M42 P4 S74 
M42 P5 S176 
M42 P6 S22 
G1 X42.58 Y2.26 Z36.00 F3500 
M42 P4 S74 
M42 P5 S171 
M42 P6 S22 
G1 X42.59 Y2.50 Z36.00 F3500 
M42 P4 S74 
M42 P5 S171 
M42 P6 S22 
G1 X42.58 Y4.12 Z36.00 F3500 
M42 P4 S75 
M42 P5 S180 
M42 P6 S22 
G1 X42.59 Y4.57 Z36.00 F3500 
M42 P4 S75 
M42 P5 S182 
M42 P6 S22 
G1 X42.54 Y5.32 Z36.00 F3500 
M42 P4 S76 
M42 P5 S182 
M42 P6 S23 
G1 X42.51 Y5.73 Z36.00 F3500 
M42 P4 S75 
M42 P5 S183 
M42 P6 S23 
G1 X42.34 Y6.93 Z36.00 F3500 
M42 P4 S76 
M42 P5 S184 
M42 P6 S23 
G1 X42.25 Y7.44 Z36.00 F3500 
M42 P4 S76 
M42 P5 S184 
M42 P6 S23 
G1 X42.24 Y7.52 Z36.00 F3500 
M42 P4 S76 
M42 P5 S184 
M42 P6 S23 
G1 X42.18 Y7.77 Z36.00 F3500 
M42 P4 S76 
M42 P5 S187 
M42 P6 S23 
G1 X42.11 Y7.99 Z36.00 F3500 
M42 P4 S76 
M42 P5 S187 
M42 P6 S23 
G1 X41.91 Y8.76 Z36.00 F3500 
M42 P4 S77 
M42 P5 S190 
M42 P6 S24 
G1 X41.86 Y8.93 Z36.00 F3500 
M42 P4 S77 
M42 P5 S191 
M42 P6 S24 
G1 X41.74 Y9.24 Z36.00 F3500 
M42 P4 S77 
M42 P5 S190 
M42 P6 S24 
G1 X41.61 Y9.66 Z36.00 F3500 
M42 P4 S78 
M42 P5 S192 
M42 P6 S24 
G1 X41.44 Y10.20 Z36.00 F3500 
M42 P4 S78 
M42 P5 S193 
M42 P6 S24 
G1 X41.18 Y10.93 Z36.00 F3500 
M42 P4 S78 
M42 P5 S192 
M42 P6 S24 
G1 X41.15 Y11.00 Z36.00 F3500 
M42 P4 S78 
M42 P5 S192 
M42 P6 S24 
G1 X40.82 Y11.91 Z36.00 F3500 
M42 P4 S78 
M42 P5 S193 
M42 P6 S24 
G1 X40.27 Y13.88 Z36.00 F3500 
M42 P4 S79 
M42 P5 S196 
M42 P6 S24 
G1 X40.17 Y14.25 Z36.00 F3500 
M42 P4 S79 
M42 P5 S196 
M42 P6 S24 
G1 X40.15 Y14.31 Z36.00 F3500 
M42 P4 S79 
M42 P5 S196 
M42 P6 S24 
G1 X39.95 Y15.05 Z36.00 F3500 
M42 P4 S80 
M42 P5 S200 
M42 P6 S25 
G1 X39.83 Y15.59 Z36.00 F3500 
M42 P4 S79 
M42 P5 S200 
M42 P6 S25 
G1 X39.62 Y16.93 Z36.00 F3500 
M42 P4 S77 
M42 P5 S189 
M42 P6 S24 
G1 X39.34 Y18.36 Z36.00 F3500 
M42 P4 S76 
M42 P5 S184 
M42 P6 S23 
G1 X39.16 Y19.10 Z36.00 F3500 
M42 P4 S76 
M42 P5 S183 
M42 P6 S23 
G1 X38.93 Y20.14 Z36.00 F3500 
M42 P4 S75 
M42 P5 S181 
M42 P6 S22 
G1 X38.89 Y20.46 Z36.00 F3500 
M42 P4 S75 
M42 P5 S180 
M42 P6 S22 
G1 X38.53 Y22.04 Z36.00 F3500 
M42 P4 S72 
M42 P5 S177 
M42 P6 S22 
G1 X38.53 Y22.04 Z36.00 F3500 
M42 P4 S72 
M42 P5 S177 
M42 P6 S22 
G1 X38.53 Y22.04 Z36.00 F3500 
M42 P4 S72 
M42 P5 S177 
M42 P6 S22 
G1 X38.53 Y22.04 Z36.00 F3500 
M42 P4 S72 
M42 P5 S177 
M42 P6 S22 
G1 X38.17 Y23.54 Z36.00 F3500 
M42 P4 S72 
M42 P5 S176 
M42 P6 S22 
G1 X38.12 Y23.64 Z36.00 F3500 
M42 P4 S72 
M42 P5 S176 
M42 P6 S22 
G1 X38.03 Y23.87 Z36.00 F3500 
M42 P4 S71 
M42 P5 S174 
M42 P6 S22 
G1 X37.67 Y24.95 Z36.00 F3500 
M42 P4 S70 
M42 P5 S170 
M42 P6 S22 
G1 X37.24 Y25.83 Z36.00 F3500 
M42 P4 S68 
M42 P5 S167 
M42 P6 S21 
G1 X37.24 Y25.84 Z36.00 F3500 
M42 P4 S68 
M42 P5 S167 
M42 P6 S21 
G1 X37.23 Y25.85 Z36.00 F3500 
M42 P4 S68 
M42 P5 S167 
M42 P6 S21 
G1 X37.02 Y26.28 Z36.00 F3500 
M42 P4 S67 
M42 P5 S166 
M42 P6 S21 
G1 X36.87 Y26.49 Z36.00 F3500 
M42 P4 S67 
M42 P5 S162 
M42 P6 S21 
G1 X36.50 Y27.09 Z36.00 F3500 
M42 P4 S66 
M42 P5 S158 
M42 P6 S20 
G1 X36.18 Y27.49 Z36.00 F3500 
M42 P4 S64 
M42 P5 S152 
M42 P6 S20 
G1 X35.70 Y28.01 Z36.00 F3500 
M42 P4 S64 
M42 P5 S152 
M42 P6 S20 
G1 X34.93 Y28.75 Z36.00 F3500 
M42 P4 S64 
M42 P5 S153 
M42 P6 S20 
G1 X34.03 Y29.53 Z36.00 F3500 
M42 P4 S61 
M42 P5 S149 
M42 P6 S19 
G1 X33.89 Y29.66 Z36.00 F3500 
M42 P4 S61 
M42 P5 S149 
M42 P6 S19 
G1 X33.83 Y29.72 Z36.00 F3500 
M42 P4 S61 
M42 P5 S148 
M42 P6 S19 
G1 X33.39 Y30.22 Z36.00 F3500 
M42 P4 S62 
M42 P5 S147 
M42 P6 S19 
G1 X33.18 Y30.46 Z36.00 F3500 
M42 P4 S62 
M42 P5 S146 
M42 P6 S19 
G1 X32.40 Y31.60 Z36.00 F3500 
M42 P4 S58 
M42 P5 S133 
M42 P6 S17 
G1 X32.34 Y31.69 Z36.00 F3500 
M42 P4 S58 
M42 P5 S134 
M42 P6 S17 
G1 X31.60 Y32.75 Z36.00 F3500 
M42 P4 S61 
M42 P5 S146 
M42 P6 S19 
G1 X30.43 Y34.03 Z36.00 F3500 
M42 P4 S63 
M42 P5 S150 
M42 P6 S20 
G1 X30.19 Y34.29 Z36.00 F3500 
M42 P4 S64 
M42 P5 S151 
M42 P6 S20 
G1 X30.08 Y34.38 Z36.00 F3500 
M42 P4 S64 
M42 P5 S151 
M42 P6 S20 
G1 X29.64 Y34.76 Z36.00 F3500 
M42 P4 S65 
M42 P5 S156 
M42 P6 S20 
G1 X29.34 Y34.97 Z36.00 F3500 
M42 P4 S67 
M42 P5 S160 
M42 P6 S21 
G1 X29.05 Y35.17 Z36.00 F3500 
M42 P4 S68 
M42 P5 S164 
M42 P6 S21 
G1 X28.68 Y35.39 Z36.00 F3500 
M42 P4 S67 
M42 P5 S163 
M42 P6 S21 
G1 X28.43 Y35.55 Z36.00 F3500 
M42 P4 S67 
M42 P5 S159 
M42 P6 S21 
G1 X27.83 Y35.80 Z36.00 F3500 
M42 P4 S69 
M42 P5 S167 
M42 P6 S22 
G1 X26.64 Y36.41 Z36.00 F3500 
M42 P4 S69 
M42 P5 S167 
M42 P6 S22 
G1 X26.57 Y36.44 Z36.00 F3500 
M42 P4 S69 
M42 P5 S167 
M42 P6 S21 
G1 X26.26 Y36.55 Z36.00 F3500 
M42 P4 S70 
M42 P5 S168 
M42 P6 S22 
G1 X25.63 Y36.84 Z36.00 F3500 
M42 P4 S72 
M42 P5 S172 
M42 P6 S22 
G1 X25.23 Y37.04 Z36.00 F3500 
M42 P4 S73 
M42 P5 S177 
M42 P6 S22 
G1 X24.23 Y37.39 Z36.00 F3500 
M42 P4 S73 
M42 P5 S177 
M42 P6 S22 
G1 X23.90 Y37.54 Z36.00 F3500 
M42 P4 S73 
M42 P5 S177 
M42 P6 S22 
G1 X23.86 Y37.56 Z36.00 F3500 
M42 P4 S73 
M42 P5 S177 
M42 P6 S22 
G1 X23.65 Y37.64 Z36.00 F3500 
M42 P4 S73 
M42 P5 S176 
M42 P6 S22 
G1 X22.92 Y37.87 Z36.00 F3500 
M42 P4 S74 
M42 P5 S181 
M42 P6 S23 
G1 X22.90 Y37.88 Z36.00 F3500 
M42 P4 S74 
M42 P5 S181 
M42 P6 S23 
G1 X21.98 Y38.16 Z36.00 F3500 
M42 P4 S75 
M42 P5 S184 
M42 P6 S23 
G1 X19.92 Y38.77 Z36.00 F3500 
M42 P4 S76 
M42 P5 S189 
M42 P6 S24 
G1 X19.65 Y38.84 Z36.00 F3500 
M42 P4 S77 
M42 P5 S191 
M42 P6 S24 
G1 X19.52 Y38.87 Z36.00 F3500 
M42 P4 S77 
M42 P5 S191 
M42 P6 S24 
G1 X19.05 Y39.05 Z36.00 F3500 
M42 P4 S77 
M42 P5 S191 
M42 P6 S24 
G1 X18.30 Y39.31 Z36.00 F3500 
M42 P4 S78 
M42 P5 S191 
M42 P6 S24 
G1 X17.59 Y39.60 Z36.00 F3500 
M42 P4 S78 
M42 P5 S189 
M42 P6 S23 
G1 X16.22 Y40.18 Z36.00 F3500 
M42 P4 S78 
M42 P5 S193 
M42 P6 S24 
G1 X15.72 Y40.38 Z36.00 F3500 
M42 P4 S78 
M42 P5 S194 
M42 P6 S24 
G1 X15.16 Y40.65 Z36.00 F3500 
M42 P4 S78 
M42 P5 S193 
M42 P6 S24 
G1 X14.65 Y40.90 Z36.00 F3500 
M42 P4 S79 
M42 P5 S199 
M42 P6 S25 
G1 X14.28 Y41.10 Z36.00 F3500 
M42 P4 S78 
M42 P5 S194 
M42 P6 S24 
G1 X14.18 Y41.16 Z36.00 F3500 
M42 P4 S78 
M42 P5 S194 
M42 P6 S24 
G1 X14.02 Y41.25 Z36.00 F3500 
M42 P4 S78 
M42 P5 S193 
M42 P6 S24 
G1 X13.79 Y41.42 Z36.00 F3500 
M42 P4 S78 
M42 P5 S197 
M42 P6 S24 
G1 X12.94 Y41.83 Z36.00 F3500 
M42 P4 S78 
M42 P5 S190 
M42 P6 S24 
G1 X12.50 Y42.03 Z36.00 F3500 
M42 P4 S78 
M42 P5 S194 
M42 P6 S24 
G1 X11.26 Y42.52 Z36.00 F3500 
M42 P4 S77 
M42 P5 S188 
M42 P6 S23 
G1 X11.23 Y42.53 Z36.00 F3500 
M42 P4 S77 
M42 P5 S188 
M42 P6 S23 
G1 X11.23 Y42.53 Z36.00 F3500 
M42 P4 S77 
M42 P5 S188 
M42 P6 S23 
G1 X11.18 Y42.55 Z36.00 F3500 
M42 P4 S77 
M42 P5 S188 
M42 P6 S23 
G1 X11.11 Y42.57 Z36.00 F3500 
M42 P4 S77 
M42 P5 S188 
M42 P6 S23 
G1 X9.54 Y43.01 Z36.00 F3500 
M42 P4 S78 
M42 P5 S193 
M42 P6 S24 
G1 X9.53 Y43.01 Z36.00 F3500 
M42 P4 S78 
M42 P5 S193 
M42 P6 S24 
G1 X8.39 Y43.21 Z36.00 F3500 
M42 P4 S79 
M42 P5 S196 
M42 P6 S24 
G1 X7.96 Y43.28 Z36.00 F3500 
M42 P4 S79 
M42 P5 S194 
M42 P6 S24 
G1 X7.18 Y43.35 Z36.00 F3500 
M42 P4 S79 
M42 P5 S196 
M42 P6 S24 
G1 X6.77 Y43.40 Z36.00 F3500 
M42 P4 S80 
M42 P5 S199 
M42 P6 S24 
G1 X6.47 Y43.41 Z36.00 F3500 
M42 P4 S80 
M42 P5 S200 
M42 P6 S24 
G1 X5.38 Y43.42 Z36.00 F3500 
M42 P4 S80 
M42 P5 S198 
M42 P6 S25 
G1 X4.78 Y43.42 Z36.00 F3500 
M42 P4 S80 
M42 P5 S198 
M42 P6 S25 
G1 X4.65 Y43.42 Z36.00 F3500 
M42 P4 S80 
M42 P5 S198 
M42 P6 S25 
G1 X4.34 Y43.41 Z36.00 F3500 
M42 P4 S80 
M42 P5 S197 
M42 P6 S25 
G1 X3.25 Y43.32 Z36.00 F3500 
M42 P4 S80 
M42 P5 S196 
M42 P6 S24 
G1 X2.14 Y43.22 Z36.00 F3500 
M42 P4 S80 
M42 P5 S199 
M42 P6 S25 
G1 X0.68 Y42.98 Z36.00 F3500 
M42 P4 S81 
M42 P5 S203 
M42 P6 S25 
G1 X0.09 Y42.85 Z36.00 F3500 
M42 P4 S81 
M42 P5 S203 
M42 P6 S25 
G1 X-0.58 Y42.68 Z36.00 F3500 
M42 P4 S80 
M42 P5 S198 
M42 P6 S25 
G1 X-2.02 Y42.30 Z36.00 F3500 
M42 P4 S79 
M42 P5 S193 
M42 P6 S24 
G1 X-2.70 Y42.10 Z36.00 F3500 
M42 P4 S79 
M42 P5 S194 
M42 P6 S24 
G1 X-3.63 Y41.80 Z36.00 F3500 
M42 P4 S79 
M42 P5 S196 
M42 P6 S24 
G1 X-4.34 Y41.56 Z36.00 F3500 
M42 P4 S79 
M42 P5 S196 
M42 P6 S24 
G1 X-4.90 Y41.33 Z36.00 F3500 
M42 P4 S79 
M42 P5 S196 
M42 P6 S24 
G1 X-5.83 Y40.93 Z36.00 F3500 
M42 P4 S78 
M42 P5 S192 
M42 P6 S24 
G1 X-7.02 Y40.35 Z36.00 F3500 
M42 P4 S76 
M42 P5 S183 
M42 P6 S23 
G1 X-7.61 Y40.06 Z36.00 F3500 
M42 P4 S74 
M42 P5 S176 
M42 P6 S22 
G1 X-8.22 Y39.75 Z36.00 F3500 
M42 P4 S73 
M42 P5 S170 
M42 P6 S22 
G1 X-8.51 Y39.59 Z36.00 F3500 
M42 P4 S73 
M42 P5 S168 
M42 P6 S21 
G1 X-8.81 Y39.40 Z36.00 F3500 
M42 P4 S73 
M42 P5 S169 
M42 P6 S21 
G1 X-9.09 Y39.22 Z36.00 F3500 
M42 P4 S73 
M42 P5 S168 
M42 P6 S21 
G1 X-9.47 Y38.97 Z36.00 F3500 
M42 P4 S73 
M42 P5 S169 
M42 P6 S21 
G1 X-10.42 Y38.31 Z36.00 F3500 
M42 P4 S72 
M42 P5 S170 
M42 P6 S21 
G1 X-11.25 Y37.70 Z36.00 F3500 
M42 P4 S72 
M42 P5 S168 
M42 P6 S20 
G1 X-12.07 Y37.04 Z36.00 F3500 
M42 P4 S71 
M42 P5 S164 
M42 P6 S20 
G1 X-13.00 Y36.24 Z36.00 F3500 
M42 P4 S69 
M42 P5 S161 
M42 P6 S20 
G1 X-14.24 Y35.15 Z36.00 F3500 
M42 P4 S70 
M42 P5 S162 
M42 P6 S20 
G1 X-14.67 Y34.74 Z36.00 F3500 
M42 P4 S69 
M42 P5 S163 
M42 P6 S20 
G1 X-15.01 Y34.43 Z36.00 F3500 
M42 P4 S68 
M42 P5 S159 
M42 P6 S20 
G1 X-15.64 Y33.80 Z36.00 F3500 
M42 P4 S66 
M42 P5 S151 
M42 P6 S19 
G1 X-16.03 Y33.39 Z36.00 F3500 
M42 P4 S66 
M42 P5 S150 
M42 P6 S19 
G1 X-17.97 Y31.34 Z36.00 F3500 
M42 P4 S64 
M42 P5 S147 
M42 P6 S18 
G1 X-18.11 Y31.18 Z36.00 F3500 
M42 P4 S64 
M42 P5 S147 
M42 P6 S18 
G1 X-18.44 Y30.82 Z36.00 F3500 
M42 P4 S63 
M42 P5 S144 
M42 P6 S18 
G1 X-20.16 Y28.86 Z36.00 F3500 
M42 P4 S60 
M42 P5 S134 
M42 P6 S17 
G1 X-20.95 Y27.93 Z36.00 F3500 
M42 P4 S59 
M42 P5 S134 
M42 P6 S17 
G1 X-21.61 Y27.20 Z36.00 F3500 
M42 P4 S60 
M42 P5 S136 
M42 P6 S17 
G1 X-22.62 Y26.01 Z36.00 F3500 
M42 P4 S61 
M42 P5 S136 
M42 P6 S17 
G1 X-23.19 Y25.38 Z36.00 F3500 
M42 P4 S60 
M42 P5 S134 
M42 P6 S17 
G1 X-25.59 Y22.58 Z36.00 F3500 
M42 P4 S62 
M42 P5 S140 
M42 P6 S18 
G1 X-25.78 Y22.35 Z36.00 F3500 
M42 P4 S62 
M42 P5 S140 
M42 P6 S18 
G1 X-26.00 Y22.09 Z36.00 F3500 
M42 P4 S62 
M42 P5 S140 
M42 P6 S18 
G1 X-26.99 Y20.87 Z36.00 F3500 
M42 P4 S61 
M42 P5 S139 
M42 P6 S17 
G1 X-27.87 Y19.73 Z36.00 F3500 
M42 P4 S61 
M42 P5 S140 
M42 P6 S17 
G1 X-29.71 Y17.51 Z36.00 F3500 
M42 P4 S59 
M42 P5 S134 
M42 P6 S17 
G1 X-29.91 Y17.26 Z36.00 F3500 
M42 P4 S59 
M42 P5 S133 
M42 P6 S17 
G1 X-30.07 Y17.07 Z36.00 F3500 
M42 P4 S59 
M42 P5 S133 
M42 P6 S17 
G1 X-30.08 Y17.06 Z36.00 F3500 
M42 P4 S59 
M42 P5 S133 
M42 P6 S17 
G1 X-30.60 Y16.44 Z36.00 F3500 
M42 P4 S60 
M42 P5 S136 
M42 P6 S17 
G1 X-30.66 Y16.32 Z36.00 F3500 
M42 P4 S59 
M42 P5 S133 
M42 P6 S17 
G1 X-30.68 Y16.30 Z36.00 F3500 
M42 P4 S59 
M42 P5 S137 
M42 P6 S17 
G1 X-30.72 Y16.22 Z36.00 F3500 
M42 P4 S60 
M42 P5 S138 
M42 P6 S17 
M42 P4 S0 
M42 P5 S0 
M42 P6 S0 
G1 X19.02 Y-30.18 Z38.00 F3500 
M42 P4 S54 
M42 P5 S120 
M42 P6 S15 
G1 X19.10 Y-30.15 Z38.00 F3500 
M42 P4 S53 
M42 P5 S118 
M42 P6 S15 
G1 X19.52 Y-29.99 Z38.00 F3500 
M42 P4 S58 
M42 P5 S131 
M42 P6 S17 
G1 X19.98 Y-29.79 Z38.00 F3500 
M42 P4 S63 
M42 P5 S148 
M42 P6 S19 
G1 X20.64 Y-29.21 Z38.00 F3500 
M42 P4 S63 
M42 P5 S143 
M42 P6 S19 
G1 X20.86 Y-29.05 Z38.00 F3500 
M42 P4 S64 
M42 P5 S146 
M42 P6 S18 
G1 X21.29 Y-28.72 Z38.00 F3500 
M42 P4 S64 
M42 P5 S148 
M42 P6 S18 
G1 X23.38 Y-26.82 Z38.00 F3500 
M42 P4 S64 
M42 P5 S148 
M42 P6 S19 
G1 X23.50 Y-26.72 Z38.00 F3500 
M42 P4 S64 
M42 P5 S149 
M42 P6 S19 
G1 X23.66 Y-26.56 Z38.00 F3500 
M42 P4 S64 
M42 P5 S149 
M42 P6 S19 
G1 X24.74 Y-25.60 Z38.00 F3500 
M42 P4 S63 
M42 P5 S144 
M42 P6 S18 
G1 X25.26 Y-25.16 Z38.00 F3500 
M42 P4 S62 
M42 P5 S143 
M42 P6 S18 
G1 X26.71 Y-23.84 Z38.00 F3500 
M42 P4 S63 
M42 P5 S147 
M42 P6 S19 
G1 X27.11 Y-23.45 Z38.00 F3500 
M42 P4 S64 
M42 P5 S147 
M42 P6 S19 
G1 X27.13 Y-23.41 Z38.00 F3500 
M42 P4 S64 
M42 P5 S147 
M42 P6 S19 
G1 X30.72 Y-19.87 Z38.00 F3500 
M42 P4 S66 
M42 P5 S152 
M42 P6 S19 
G1 X31.00 Y-19.58 Z38.00 F3500 
M42 P4 S67 
M42 P5 S153 
M42 P6 S20 
G1 X32.83 Y-17.72 Z38.00 F3500 
M42 P4 S65 
M42 P5 S152 
M42 P6 S19 
G1 X35.48 Y-14.98 Z38.00 F3500 
M42 P4 S66 
M42 P5 S151 
M42 P6 S19 
G1 X35.98 Y-14.45 Z38.00 F3500 
M42 P4 S66 
M42 P5 S150 
M42 P6 S18 
G1 X36.61 Y-13.77 Z38.00 F3500 
M42 P4 S66 
M42 P5 S151 
M42 P6 S18 
G1 X37.90 Y-12.30 Z38.00 F3500 
M42 P4 S68 
M42 P5 S159 
M42 P6 S20 
G1 X38.17 Y-12.00 Z38.00 F3500 
M42 P4 S69 
M42 P5 S157 
M42 P6 S20 
G1 X38.77 Y-11.19 Z38.00 F3500 
M42 P4 S70 
M42 P5 S161 
M42 P6 S20 
G1 X39.46 Y-10.18 Z38.00 F3500 
M42 P4 S72 
M42 P5 S166 
M42 P6 S21 
G1 X39.71 Y-9.80 Z38.00 F3500 
M42 P4 S71 
M42 P5 S164 
M42 P6 S21 
G1 X39.85 Y-9.59 Z38.00 F3500 
M42 P4 S70 
M42 P5 S161 
M42 P6 S21 
G1 X40.48 Y-8.56 Z38.00 F3500 
M42 P4 S72 
M42 P5 S168 
M42 P6 S21 
G1 X40.51 Y-8.51 Z38.00 F3500 
M42 P4 S72 
M42 P5 S168 
M42 P6 S21 
G1 X40.53 Y-8.46 Z38.00 F3500 
M42 P4 S72 
M42 P5 S168 
M42 P6 S21 
G1 X41.22 Y-7.11 Z38.00 F3500 
M42 P4 S73 
M42 P5 S172 
M42 P6 S21 
G1 X41.47 Y-6.60 Z38.00 F3500 
M42 P4 S73 
M42 P5 S171 
M42 P6 S21 
G1 X41.79 Y-5.90 Z38.00 F3500 
M42 P4 S74 
M42 P5 S176 
M42 P6 S22 
G1 X41.89 Y-5.66 Z38.00 F3500 
M42 P4 S74 
M42 P5 S178 
M42 P6 S22 
G1 X42.22 Y-4.74 Z38.00 F3500 
M42 P4 S76 
M42 P5 S180 
M42 P6 S22 
G1 X42.63 Y-3.58 Z38.00 F3500 
M42 P4 S76 
M42 P5 S182 
M42 P6 S23 
G1 X42.67 Y-3.45 Z38.00 F3500 
M42 P4 S76 
M42 P5 S183 
M42 P6 S23 
G1 X42.89 Y-2.55 Z38.00 F3500 
M42 P4 S77 
M42 P5 S184 
M42 P6 S23 
G1 X42.94 Y-2.30 Z38.00 F3500 
M42 P4 S77 
M42 P5 S184 
M42 P6 S23 
G1 X43.02 Y-1.87 Z38.00 F3500 
M42 P4 S77 
M42 P5 S186 
M42 P6 S23 
G1 X43.25 Y-0.51 Z38.00 F3500 
M42 P4 S77 
M42 P5 S186 
M42 P6 S23 
G1 X43.28 Y-0.19 Z38.00 F3500 
M42 P4 S77 
M42 P5 S186 
M42 P6 S23 
G1 X43.46 Y1.60 Z38.00 F3500 
M42 P4 S75 
M42 P5 S181 
M42 P6 S23 
G1 X43.49 Y2.36 Z38.00 F3500 
M42 P4 S75 
M42 P5 S181 
M42 P6 S23 
G1 X43.52 Y3.18 Z38.00 F3500 
M42 P4 S76 
M42 P5 S183 
M42 P6 S23 
G1 X43.49 Y3.95 Z38.00 F3500 
M42 P4 S76 
M42 P5 S184 
M42 P6 S23 
G1 X43.46 Y4.81 Z38.00 F3500 
M42 P4 S76 
M42 P5 S184 
M42 P6 S23 
G1 X43.45 Y5.17 Z38.00 F3500 
M42 P4 S76 
M42 P5 S184 
M42 P6 S23 
G1 X43.38 Y5.79 Z38.00 F3500 
M42 P4 S76 
M42 P5 S188 
M42 P6 S23 
G1 X43.30 Y6.31 Z38.00 F3500 
M42 P4 S77 
M42 P5 S189 
M42 P6 S23 
G1 X43.16 Y6.98 Z38.00 F3500 
M42 P4 S77 
M42 P5 S189 
M42 P6 S23 
G1 X43.02 Y7.67 Z38.00 F3500 
M42 P4 S78 
M42 P5 S190 
M42 P6 S24 
G1 X42.99 Y7.80 Z38.00 F3500 
M42 P4 S78 
M42 P5 S191 
M42 P6 S24 
G1 X42.68 Y8.82 Z38.00 F3500 
M42 P4 S78 
M42 P5 S193 
M42 P6 S24 
G1 X42.57 Y9.10 Z38.00 F3500 
M42 P4 S78 
M42 P5 S193 
M42 P6 S24 
G1 X42.15 Y10.11 Z38.00 F3500 
M42 P4 S78 
M42 P5 S192 
M42 P6 S24 
G1 X41.71 Y11.00 Z38.00 F3500 
M42 P4 S78 
M42 P5 S194 
M42 P6 S24 
G1 X41.50 Y11.36 Z38.00 F3500 
M42 P4 S77 
M42 P5 S194 
M42 P6 S24 
G1 X41.00 Y12.49 Z38.00 F3500 
M42 P4 S78 
M42 P5 S193 
M42 P6 S24 
G1 X40.79 Y12.85 Z38.00 F3500 
M42 P4 S78 
M42 P5 S192 
M42 P6 S24 
G1 X40.66 Y13.20 Z38.00 F3500 
M42 P4 S78 
M42 P5 S192 
M42 P6 S24 
G1 X40.57 Y13.37 Z38.00 F3500 
M42 P4 S78 
M42 P5 S191 
M42 P6 S24 
G1 X40.43 Y13.70 Z38.00 F3500 
M42 P4 S78 
M42 P5 S192 
M42 P6 S24 
G1 X40.20 Y14.35 Z38.00 F3500 
M42 P4 S77 
M42 P5 S193 
M42 P6 S24 
G1 X40.09 Y14.76 Z38.00 F3500 
M42 P4 S79 
M42 P5 S196 
M42 P6 S25 
G1 X39.83 Y15.59 Z38.00 F3500 
M42 P4 S79 
M42 P5 S197 
M42 P6 S25 
G1 X39.72 Y16.12 Z38.00 F3500 
M42 P4 S78 
M42 P5 S197 
M42 P6 S24 
G1 X39.69 Y16.35 Z38.00 F3500 
M42 P4 S78 
M42 P5 S196 
M42 P6 S25 
G1 X39.65 Y16.70 Z38.00 F3500 
M42 P4 S78 
M42 P5 S196 
M42 P6 S25 
G1 X39.60 Y17.17 Z38.00 F3500 
M42 P4 S77 
M42 P5 S193 
M42 P6 S24 
G1 X39.46 Y18.19 Z38.00 F3500 
M42 P4 S75 
M42 P5 S183 
M42 P6 S23 
G1 X39.42 Y18.88 Z38.00 F3500 
M42 P4 S75 
M42 P5 S181 
M42 P6 S23 
G1 X39.39 Y19.20 Z38.00 F3500 
M42 P4 S75 
M42 P5 S180 
M42 P6 S23 
G1 X39.25 Y21.41 Z38.00 F3500 
M42 P4 S72 
M42 P5 S171 
M42 P6 S22 
G1 X39.27 Y21.56 Z38.00 F3500 
M42 P4 S72 
M42 P5 S171 
M42 P6 S22 
G1 X39.18 Y22.15 Z38.00 F3500 
M42 P4 S71 
M42 P5 S169 
M42 P6 S22 
G1 X39.07 Y23.10 Z38.00 F3500 
M42 P4 S70 
M42 P5 S170 
M42 P6 S22 
G1 X39.06 Y23.16 Z38.00 F3500 
M42 P4 S70 
M42 P5 S170 
M42 P6 S22 
G1 X39.03 Y23.35 Z38.00 F3500 
M42 P4 S70 
M42 P5 S169 
M42 P6 S21 
G1 X38.90 Y24.42 Z38.00 F3500 
M42 P4 S65 
M42 P5 S146 
M42 P6 S19 
G1 X38.87 Y24.66 Z38.00 F3500 
M42 P4 S63 
M42 P5 S142 
M42 P6 S18 
G1 X38.70 Y25.48 Z38.00 F3500 
M42 P4 S60 
M42 P5 S127 
M42 P6 S16 
G1 X38.63 Y26.40 Z38.00 F3500 
M42 P4 S52 
M42 P5 S103 
M42 P6 S13 
G1 X38.63 Y26.44 Z38.00 F3500 
M42 P4 S52 
M42 P5 S102 
M42 P6 S13 
G1 X38.34 Y27.52 Z38.00 F3500 
M42 P4 S51 
M42 P5 S94 
M42 P6 S12 
G1 X38.05 Y28.58 Z38.00 F3500 
M42 P4 S50 
M42 P5 S89 
M42 P6 S12 
G1 X37.56 Y29.69 Z38.00 F3500 
M42 P4 S50 
M42 P5 S90 
M42 P6 S12 
G1 X37.53 Y29.75 Z38.00 F3500 
M42 P4 S50 
M42 P5 S90 
M42 P6 S12 
G1 X37.47 Y29.83 Z38.00 F3500 
M42 P4 S50 
M42 P5 S90 
M42 P6 S12 
G1 X37.33 Y30.02 Z38.00 F3500 
M42 P4 S50 
M42 P5 S88 
M42 P6 S12 
G1 X36.40 Y31.25 Z38.00 F3500 
M42 P4 S50 
M42 P5 S83 
M42 P6 S11 
G1 X35.40 Y32.40 Z38.00 F3500 
M42 P4 S52 
M42 P5 S86 
M42 P6 S11 
G1 X35.37 Y32.43 Z38.00 F3500 
M42 P4 S52 
M42 P5 S86 
M42 P6 S11 
G1 X35.37 Y32.43 Z38.00 F3500 
M42 P4 S52 
M42 P5 S86 
M42 P6 S11 
G1 X35.36 Y32.44 Z38.00 F3500 
M42 P4 S52 
M42 P5 S86 
M42 P6 S11 
G1 X35.36 Y32.45 Z38.00 F3500 
M42 P4 S52 
M42 P5 S86 
M42 P6 S11 
G1 X34.43 Y33.30 Z38.00 F3500 
M42 P4 S52 
M42 P5 S90 
M42 P6 S12 
G1 X33.48 Y34.18 Z38.00 F3500 
M42 P4 S52 
M42 P5 S82 
M42 P6 S11 
G1 X33.45 Y34.20 Z38.00 F3500 
M42 P4 S52 
M42 P5 S82 
M42 P6 S11 
G1 X33.40 Y34.24 Z38.00 F3500 
M42 P4 S52 
M42 P5 S82 
M42 P6 S11 
G1 X32.32 Y35.03 Z38.00 F3500 
M42 P4 S53 
M42 P5 S88 
M42 P6 S12 
G1 X31.82 Y35.39 Z38.00 F3500 
M42 P4 S52 
M42 P5 S87 
M42 P6 S12 
G1 X31.67 Y35.48 Z38.00 F3500 
M42 P4 S52 
M42 P5 S88 
M42 P6 S12 
G1 X31.61 Y35.52 Z38.00 F3500 
M42 P4 S52 
M42 P5 S88 
M42 P6 S12 
G1 X31.55 Y35.55 Z38.00 F3500 
M42 P4 S53 
M42 P5 S89 
M42 P6 S12 
G1 X30.41 Y36.08 Z38.00 F3500 
M42 P4 S58 
M42 P5 S108 
M42 P6 S14 
G1 X29.77 Y36.35 Z38.00 F3500 
M42 P4 S58 
M42 P5 S109 
M42 P6 S15 
G1 X29.69 Y36.38 Z38.00 F3500 
M42 P4 S58 
M42 P5 S110 
M42 P6 S15 
G1 X29.38 Y36.49 Z38.00 F3500 
M42 P4 S59 
M42 P5 S112 
M42 P6 S15 
G1 X27.96 Y36.94 Z38.00 F3500 
M42 P4 S63 
M42 P5 S129 
M42 P6 S17 
G1 X27.42 Y37.11 Z38.00 F3500 
M42 P4 S64 
M42 P5 S137 
M42 P6 S18 
G1 X27.11 Y37.20 Z38.00 F3500 
M42 P4 S64 
M42 P5 S133 
M42 P6 S18 
G1 X25.58 Y37.57 Z38.00 F3500 
M42 P4 S66 
M42 P5 S147 
M42 P6 S19 
G1 X23.97 Y37.93 Z38.00 F3500 
M42 P4 S73 
M42 P5 S176 
M42 P6 S23 
G1 X23.73 Y38.00 Z38.00 F3500 
M42 P4 S74 
M42 P5 S176 
M42 P6 S23 
G1 X22.62 Y38.26 Z38.00 F3500 
M42 P4 S74 
M42 P5 S177 
M42 P6 S23 
G1 X21.99 Y38.40 Z38.00 F3500 
M42 P4 S74 
M42 P5 S178 
M42 P6 S23 
G1 X21.79 Y38.44 Z38.00 F3500 
M42 P4 S74 
M42 P5 S177 
M42 P6 S23 
G1 X21.48 Y38.51 Z38.00 F3500 
M42 P4 S74 
M42 P5 S179 
M42 P6 S23 
G1 X19.74 Y38.92 Z38.00 F3500 
M42 P4 S76 
M42 P5 S187 
M42 P6 S24 
G1 X19.28 Y39.08 Z38.00 F3500 
M42 P4 S76 
M42 P5 S189 
M42 P6 S24 
G1 X19.12 Y39.12 Z38.00 F3500 
M42 P4 S76 
M42 P5 S189 
M42 P6 S24 
G1 X18.92 Y39.19 Z38.00 F3500 
M42 P4 S76 
M42 P5 S189 
M42 P6 S23 
G1 X17.72 Y39.69 Z38.00 F3500 
M42 P4 S76 
M42 P5 S186 
M42 P6 S23 
G1 X17.08 Y39.99 Z38.00 F3500 
M42 P4 S76 
M42 P5 S184 
M42 P6 S23 
G1 X16.52 Y40.31 Z38.00 F3500 
M42 P4 S77 
M42 P5 S187 
M42 P6 S23 
G1 X16.11 Y40.52 Z38.00 F3500 
M42 P4 S77 
M42 P5 S187 
M42 P6 S23 
G1 X15.83 Y40.71 Z38.00 F3500 
M42 P4 S77 
M42 P5 S189 
M42 P6 S23 
G1 X15.67 Y40.85 Z38.00 F3500 
M42 P4 S76 
M42 P5 S187 
M42 P6 S23 
G1 X15.13 Y41.23 Z38.00 F3500 
M42 P4 S77 
M42 P5 S190 
M42 P6 S24 
G1 X14.97 Y41.38 Z38.00 F3500 
M42 P4 S78 
M42 P5 S193 
M42 P6 S24 
G1 X14.70 Y41.59 Z38.00 F3500 
M42 P4 S78 
M42 P5 S194 
M42 P6 S24 
G1 X14.43 Y41.77 Z38.00 F3500 
M42 P4 S78 
M42 P5 S194 
M42 P6 S24 
G1 X13.62 Y42.32 Z38.00 F3500 
M42 P4 S79 
M42 P5 S196 
M42 P6 S24 
G1 X12.85 Y42.73 Z38.00 F3500 
M42 P4 S78 
M42 P5 S192 
M42 P6 S24 
G1 X12.75 Y42.78 Z38.00 F3500 
M42 P4 S78 
M42 P5 S190 
M42 P6 S24 
G1 X12.18 Y43.06 Z38.00 F3500 
M42 P4 S77 
M42 P5 S190 
M42 P6 S23 
G1 X12.08 Y43.10 Z38.00 F3500 
M42 P4 S78 
M42 P5 S191 
M42 P6 S24 
G1 X11.36 Y43.36 Z38.00 F3500 
M42 P4 S79 
M42 P5 S196 
M42 P6 S24 
G1 X10.81 Y43.56 Z38.00 F3500 
M42 P4 S78 
M42 P5 S193 
M42 P6 S24 
G1 X10.23 Y43.74 Z38.00 F3500 
M42 P4 S79 
M42 P5 S196 
M42 P6 S24 
G1 X9.83 Y43.84 Z38.00 F3500 
M42 P4 S79 
M42 P5 S197 
M42 P6 S24 
G1 X9.25 Y43.96 Z38.00 F3500 
M42 P4 S79 
M42 P5 S197 
M42 P6 S24 
G1 X9.03 Y44.01 Z38.00 F3500 
M42 P4 S79 
M42 P5 S196 
M42 P6 S24 
G1 X8.45 Y44.11 Z38.00 F3500 
M42 P4 S80 
M42 P5 S197 
M42 P6 S24 
G1 X7.62 Y44.24 Z38.00 F3500 
M42 P4 S80 
M42 P5 S198 
M42 P6 S24 
G1 X7.55 Y44.25 Z38.00 F3500 
M42 P4 S80 
M42 P5 S198 
M42 P6 S24 
G1 X7.51 Y44.26 Z38.00 F3500 
M42 P4 S80 
M42 P5 S198 
M42 P6 S24 
G1 X7.02 Y44.30 Z38.00 F3500 
M42 P4 S80 
M42 P5 S199 
M42 P6 S24 
G1 X5.90 Y44.39 Z38.00 F3500 
M42 P4 S81 
M42 P5 S202 
M42 P6 S25 
G1 X5.80 Y44.39 Z38.00 F3500 
M42 P4 S81 
M42 P5 S202 
M42 P6 S25 
G1 X4.62 Y44.39 Z38.00 F3500 
M42 P4 S80 
M42 P5 S198 
M42 P6 S25 
G1 X4.45 Y44.39 Z38.00 F3500 
M42 P4 S80 
M42 P5 S198 
M42 P6 S25 
G1 X3.26 Y44.27 Z38.00 F3500 
M42 P4 S81 
M42 P5 S203 
M42 P6 S25 
G1 X1.78 Y44.12 Z38.00 F3500 
M42 P4 S81 
M42 P5 S208 
M42 P6 S26 
G1 X0.09 Y43.80 Z38.00 F3500 
M42 P4 S82 
M42 P5 S206 
M42 P6 S26 
G1 X-0.91 Y43.60 Z38.00 F3500 
M42 P4 S81 
M42 P5 S203 
M42 P6 S25 
G1 X-1.49 Y43.48 Z38.00 F3500 
M42 P4 S81 
M42 P5 S203 
M42 P6 S25 
G1 X-2.50 Y43.21 Z38.00 F3500 
M42 P4 S81 
M42 P5 S199 
M42 P6 S25 
G1 X-3.10 Y43.05 Z38.00 F3500 
M42 P4 S81 
M42 P5 S197 
M42 P6 S25 
G1 X-3.65 Y42.86 Z38.00 F3500 
M42 P4 S81 
M42 P5 S199 
M42 P6 S25 
G1 X-4.32 Y42.65 Z38.00 F3500 
M42 P4 S80 
M42 P5 S201 
M42 P6 S25 
G1 X-5.14 Y42.35 Z38.00 F3500 
M42 P4 S80 
M42 P5 S200 
M42 P6 S25 
G1 X-5.87 Y42.06 Z38.00 F3500 
M42 P4 S80 
M42 P5 S198 
M42 P6 S25 
G1 X-7.33 Y41.39 Z38.00 F3500 
M42 P4 S77 
M42 P5 S187 
M42 P6 S23 
G1 X-7.55 Y41.29 Z38.00 F3500 
M42 P4 S77 
M42 P5 S187 
M42 P6 S23 
G1 X-9.12 Y40.41 Z38.00 F3500 
M42 P4 S76 
M42 P5 S180 
M42 P6 S23 
G1 X-9.69 Y40.09 Z38.00 F3500 
M42 P4 S75 
M42 P5 S176 
M42 P6 S22 
G1 X-10.67 Y39.44 Z38.00 F3500 
M42 P4 S73 
M42 P5 S173 
M42 P6 S22 
G1 X-11.16 Y39.13 Z38.00 F3500 
M42 P4 S73 
M42 P5 S173 
M42 P6 S22 
G1 X-11.95 Y38.56 Z38.00 F3500 
M42 P4 S71 
M42 P5 S169 
M42 P6 S21 
G1 X-12.45 Y38.16 Z38.00 F3500 
M42 P4 S70 
M42 P5 S166 
M42 P6 S21 
G1 X-13.36 Y37.43 Z38.00 F3500 
M42 P4 S70 
M42 P5 S162 
M42 P6 S21 
G1 X-14.54 Y36.39 Z38.00 F3500 
M42 P4 S69 
M42 P5 S161 
M42 P6 S20 
G1 X-15.00 Y35.96 Z38.00 F3500 
M42 P4 S69 
M42 P5 S159 
M42 P6 S20 
G1 X-15.20 Y35.77 Z38.00 F3500 
M42 P4 S69 
M42 P5 S159 
M42 P6 S20 
G1 X-16.36 Y34.66 Z38.00 F3500 
M42 P4 S67 
M42 P5 S156 
M42 P6 S20 
G1 X-17.36 Y33.64 Z38.00 F3500 
M42 P4 S65 
M42 P5 S152 
M42 P6 S19 
G1 X-18.63 Y32.32 Z38.00 F3500 
M42 P4 S63 
M42 P5 S144 
M42 P6 S18 
G1 X-18.90 Y32.04 Z38.00 F3500 
M42 P4 S63 
M42 P5 S144 
M42 P6 S18 
G1 X-19.34 Y31.57 Z38.00 F3500 
M42 P4 S62 
M42 P5 S143 
M42 P6 S18 
G1 X-20.49 Y30.29 Z38.00 F3500 
M42 P4 S63 
M42 P5 S141 
M42 P6 S18 
G1 X-21.81 Y28.77 Z38.00 F3500 
M42 P4 S63 
M42 P5 S139 
M42 P6 S18 
G1 X-22.30 Y28.23 Z38.00 F3500 
M42 P4 S61 
M42 P5 S139 
M42 P6 S17 
G1 X-22.61 Y27.86 Z38.00 F3500 
M42 P4 S60 
M42 P5 S138 
M42 P6 S17 
G1 X-22.99 Y27.42 Z38.00 F3500 
M42 P4 S60 
M42 P5 S139 
M42 P6 S17 
G1 X-23.20 Y27.17 Z38.00 F3500 
M42 P4 S60 
M42 P5 S139 
M42 P6 S17 
G1 X-25.62 Y24.27 Z38.00 F3500 
M42 P4 S61 
M42 P5 S138 
M42 P6 S17 
G1 X-26.89 Y22.68 Z38.00 F3500 
M42 P4 S61 
M42 P5 S138 
M42 P6 S17 
G1 X-27.86 Y21.46 Z38.00 F3500 
M42 P4 S61 
M42 P5 S138 
M42 P6 S17 
G1 X-28.58 Y20.53 Z38.00 F3500 
M42 P4 S61 
M42 P5 S138 
M42 P6 S17 
G1 X-29.31 Y19.57 Z38.00 F3500 
M42 P4 S61 
M42 P5 S138 
M42 P6 S17 
G1 X-29.46 Y19.39 Z38.00 F3500 
M42 P4 S61 
M42 P5 S138 
M42 P6 S17 
G1 X-30.86 Y17.68 Z38.00 F3500 
M42 P4 S59 
M42 P5 S133 
M42 P6 S17 
G1 X-32.62 Y15.64 Z38.00 F3500 
M42 P4 S58 
M42 P5 S132 
M42 P6 S17 
G1 X-32.65 Y15.59 Z38.00 F3500 
M42 P4 S58 
M42 P5 S132 
M42 P6 S17 
G1 X-32.73 Y15.49 Z38.00 F3500 
M42 P4 S58 
M42 P5 S132 
M42 P6 S17 
M42 P4 S0 
M42 P5 S0 
M42 P6 S0 
G1 X18.50 Y-31.76 Z40.00 F3500 
M42 P4 S48 
M42 P5 S103 
M42 P6 S14 
G1 X18.64 Y-31.56 Z40.00 F3500 
M42 P4 S48 
M42 P5 S106 
M42 P6 S14 
G1 X18.83 Y-31.36 Z40.00 F3500 
M42 P4 S52 
M42 P5 S113 
M42 P6 S16 
G1 X19.11 Y-31.09 Z40.00 F3500 
M42 P4 S53 
M42 P5 S118 
M42 P6 S16 
G1 X19.36 Y-30.81 Z40.00 F3500 
M42 P4 S57 
M42 P5 S128 
M42 P6 S16 
G1 X19.64 Y-30.56 Z40.00 F3500 
M42 P4 S58 
M42 P5 S129 
M42 P6 S16 
G1 X20.37 Y-29.94 Z40.00 F3500 
M42 P4 S64 
M42 P5 S146 
M42 P6 S19 
G1 X20.48 Y-29.84 Z40.00 F3500 
M42 P4 S65 
M42 P5 S149 
M42 P6 S20 
G1 X20.50 Y-29.83 Z40.00 F3500 
M42 P4 S65 
M42 P5 S149 
M42 P6 S20 
G1 X20.74 Y-29.63 Z40.00 F3500 
M42 P4 S65 
M42 P5 S149 
M42 P6 S19 
G1 X22.27 Y-28.39 Z40.00 F3500 
M42 P4 S66 
M42 P5 S150 
M42 P6 S19 
G1 X22.58 Y-28.10 Z40.00 F3500 
M42 P4 S64 
M42 P5 S148 
M42 P6 S19 
G1 X23.13 Y-27.71 Z40.00 F3500 
M42 P4 S63 
M42 P5 S146 
M42 P6 S19 
G1 X23.53 Y-27.43 Z40.00 F3500 
M42 P4 S63 
M42 P5 S144 
M42 P6 S18 
G1 X25.23 Y-26.08 Z40.00 F3500 
M42 P4 S64 
M42 P5 S143 
M42 P6 S18 
G1 X25.38 Y-25.97 Z40.00 F3500 
M42 P4 S64 
M42 P5 S143 
M42 P6 S18 
G1 X25.49 Y-25.89 Z40.00 F3500 
M42 P4 S64 
M42 P5 S144 
M42 P6 S18 
G1 X26.26 Y-25.25 Z40.00 F3500 
M42 P4 S63 
M42 P5 S143 
M42 P6 S18 
G1 X26.52 Y-25.01 Z40.00 F3500 
M42 P4 S63 
M42 P5 S143 
M42 P6 S18 
G1 X27.78 Y-23.88 Z40.00 F3500 
M42 P4 S64 
M42 P5 S147 
M42 P6 S19 
G1 X28.67 Y-23.06 Z40.00 F3500 
M42 P4 S64 
M42 P5 S150 
M42 P6 S19 
G1 X32.15 Y-19.66 Z40.00 F3500 
M42 P4 S68 
M42 P5 S156 
M42 P6 S20 
G1 X33.63 Y-18.21 Z40.00 F3500 
M42 P4 S69 
M42 P5 S158 
M42 P6 S20 
G1 X33.96 Y-17.89 Z40.00 F3500 
M42 P4 S69 
M42 P5 S152 
M42 P6 S19 
G1 X35.18 Y-16.68 Z40.00 F3500 
M42 P4 S69 
M42 P5 S153 
M42 P6 S19 
G1 X36.31 Y-15.53 Z40.00 F3500 
M42 P4 S67 
M42 P5 S154 
M42 P6 S19 
G1 X36.75 Y-15.06 Z40.00 F3500 
M42 P4 S67 
M42 P5 S156 
M42 P6 S19 
G1 X37.32 Y-14.44 Z40.00 F3500 
M42 P4 S68 
M42 P5 S157 
M42 P6 S20 
G1 X38.16 Y-13.47 Z40.00 F3500 
M42 P4 S70 
M42 P5 S159 
M42 P6 S20 
G1 X39.14 Y-12.26 Z40.00 F3500 
M42 P4 S71 
M42 P5 S164 
M42 P6 S20 
G1 X40.06 Y-11.01 Z40.00 F3500 
M42 P4 S73 
M42 P5 S171 
M42 P6 S22 
G1 X40.17 Y-10.85 Z40.00 F3500 
M42 P4 S73 
M42 P5 S171 
M42 P6 S22 
G1 X40.36 Y-10.52 Z40.00 F3500 
M42 P4 S72 
M42 P5 S166 
M42 P6 S21 
G1 X40.70 Y-9.99 Z40.00 F3500 
M42 P4 S73 
M42 P5 S170 
M42 P6 S21 
G1 X41.32 Y-8.92 Z40.00 F3500 
M42 P4 S76 
M42 P5 S178 
M42 P6 S22 
G1 X41.67 Y-8.26 Z40.00 F3500 
M42 P4 S76 
M42 P5 S180 
M42 P6 S22 
G1 X42.33 Y-6.89 Z40.00 F3500 
M42 P4 S76 
M42 P5 S180 
M42 P6 S22 
G1 X42.40 Y-6.75 Z40.00 F3500 
M42 P4 S76 
M42 P5 S181 
M42 P6 S22 
G1 X42.51 Y-6.51 Z40.00 F3500 
M42 P4 S76 
M42 P5 S181 
M42 P6 S22 
G1 X42.57 Y-6.34 Z40.00 F3500 
M42 P4 S76 
M42 P5 S182 
M42 P6 S22 
G1 X42.87 Y-5.50 Z40.00 F3500 
M42 P4 S77 
M42 P5 S189 
M42 P6 S23 
G1 X42.96 Y-5.17 Z40.00 F3500 
M42 P4 S77 
M42 P5 S190 
M42 P6 S24 
G1 X43.36 Y-3.93 Z40.00 F3500 
M42 P4 S77 
M42 P5 S190 
M42 P6 S23 
G1 X43.44 Y-3.62 Z40.00 F3500 
M42 P4 S78 
M42 P5 S192 
M42 P6 S24 
G1 X43.59 Y-2.99 Z40.00 F3500 
M42 P4 S78 
M42 P5 S192 
M42 P6 S24 
G1 X43.78 Y-2.00 Z40.00 F3500 
M42 P4 S78 
M42 P5 S189 
M42 P6 S23 
G1 X43.89 Y-1.37 Z40.00 F3500 
M42 P4 S78 
M42 P5 S189 
M42 P6 S23 
G1 X44.14 Y0.37 Z40.00 F3500 
M42 P4 S78 
M42 P5 S189 
M42 P6 S23 
G1 X44.16 Y0.51 Z40.00 F3500 
M42 P4 S78 
M42 P5 S189 
M42 P6 S23 
G1 X44.16 Y0.55 Z40.00 F3500 
M42 P4 S78 
M42 P5 S189 
M42 P6 S23 
G1 X44.16 Y0.62 Z40.00 F3500 
M42 P4 S78 
M42 P5 S189 
M42 P6 S23 
G1 X44.24 Y3.13 Z40.00 F3500 
M42 P4 S77 
M42 P5 S189 
M42 P6 S23 
G1 X44.25 Y3.69 Z40.00 F3500 
M42 P4 S77 
M42 P5 S187 
M42 P6 S23 
G1 X44.22 Y4.48 Z40.00 F3500 
M42 P4 S78 
M42 P5 S188 
M42 P6 S23 
G1 X44.16 Y5.05 Z40.00 F3500 
M42 P4 S77 
M42 P5 S188 
M42 P6 S23 
G1 X44.02 Y6.08 Z40.00 F3500 
M42 P4 S78 
M42 P5 S191 
M42 P6 S23 
G1 X43.88 Y6.93 Z40.00 F3500 
M42 P4 S78 
M42 P5 S192 
